(Exported by FreeCAD)
(Post Processor: grbl_post)
(Output Time:2023-11-24 22:34:07.526156)
(Begin preamble)
G17 G90
G21
(Begin operation: Fixture)
(Path: Fixture)
G54
(Finish operation: Fixture)
(Begin operation: TC: endmill_FC2DD150)
(Path: TC: endmill_FC2DD150)
(TC: endmill_FC2DD150)
(Begin toolchange)
( M6 T4.0 )
M3 S10.0
(Finish operation: TC: endmill_FC2DD150)
(Begin operation: RampEntryDressup)
(Path: RampEntryDressup)
G0 X0.000 Y0.000 Z5.000
G0 X50.442 Y-7.208 Z5.000
G0 X50.442 Y-7.208 Z0.500
G1 X50.391 Y-7.200 Z0.502 F300.000
G1 X50.368 Y-7.246 Z0.496 F300.000
G1 X50.404 Y-7.282 Z0.491 F300.000
G1 X50.450 Y-7.259 Z0.493 F300.000
G1 X50.450 Y-14.941 Z0.249 F300.000
G1 X50.442 Y-14.992 Z0.247 F300.000
G1 X50.391 Y-15.000 Z0.246 F300.000
G1 X42.709 Y-15.000 Z0.002 F300.000
G1 X42.658 Y-14.992 Z-0.000 F300.000
G1 X42.650 Y-14.941 Z-0.002 F300.000
G1 X42.650 Y-7.259 Z-0.246 F300.000
G1 X42.658 Y-7.208 Z-0.247 F300.000
G1 X42.709 Y-7.200 Z-0.249 F300.000
G1 X50.391 Y-7.200 Z-0.493 F300.000
G1 X50.368 Y-7.246 Z-0.491 F300.000
G1 X50.404 Y-7.282 Z-0.496 F300.000
G1 X50.450 Y-7.259 Z-0.502 F300.000
G1 X50.442 Y-7.208 Z-0.500 F300.000
G0 X50.442 Y-7.208 Z5.000
G0 X39.555 Y-7.438 Z5.000
G0 X39.555 Y-7.438 Z0.500
G1 X39.527 Y-7.401 Z0.512 F300.000
G1 X39.480 Y-7.409 Z0.505 F300.000
G1 X39.470 Y-7.453 Z0.487 F300.000
G1 X39.509 Y-7.480 Z0.480 F300.000
G1 X39.550 Y-7.459 Z0.492 F300.000
G1 X39.550 Y-14.941 Z0.247 F300.000
G1 X39.542 Y-14.992 Z0.245 F300.000
G1 X39.491 Y-15.000 Z0.244 F300.000
G1 X32.009 Y-15.000 Z-0.001 F300.000
G1 X31.958 Y-14.992 Z-0.003 F300.000
G1 X31.950 Y-14.941 Z-0.005 F300.000
G1 X31.950 Y-7.459 Z-0.249 F300.000
G1 X31.958 Y-7.408 Z-0.251 F300.000
G1 X32.009 Y-7.400 Z-0.253 F300.000
G1 X39.491 Y-7.400 Z-0.497 F300.000
G1 X39.533 Y-7.401 Z-0.499 F300.000
G1 X39.555 Y-7.438 Z-0.500 F300.000
G0 X39.555 Y-7.438 Z5.000
G0 X29.055 Y-7.638 Z5.000
G0 X29.055 Y-7.638 Z0.500
G1 X29.027 Y-7.601 Z0.512 F300.000
G1 X28.980 Y-7.609 Z0.505 F300.000
G1 X28.970 Y-7.653 Z0.487 F300.000
G1 X29.009 Y-7.680 Z0.480 F300.000
G1 X29.050 Y-7.659 Z0.491 F300.000
G1 X29.050 Y-14.941 Z0.247 F300.000
G1 X29.042 Y-14.992 Z0.245 F300.000
G1 X28.991 Y-15.000 Z0.243 F300.000
G1 X21.709 Y-15.000 Z-0.001 F300.000
G1 X21.658 Y-14.992 Z-0.003 F300.000
G1 X21.650 Y-14.941 Z-0.005 F300.000
G1 X21.650 Y-7.659 Z-0.249 F300.000
G1 X21.658 Y-7.608 Z-0.251 F300.000
G1 X21.709 Y-7.600 Z-0.253 F300.000
G1 X28.991 Y-7.600 Z-0.497 F300.000
G1 X29.033 Y-7.601 Z-0.499 F300.000
G1 X29.055 Y-7.638 Z-0.500 F300.000
G0 X29.055 Y-7.638 Z5.000
G0 X18.955 Y-7.838 Z5.000
G0 X18.955 Y-7.838 Z0.500
G1 X18.927 Y-7.801 Z0.512 F300.000
G1 X18.880 Y-7.809 Z0.505 F300.000
G1 X18.870 Y-7.852 Z0.487 F300.000
G1 X18.909 Y-7.880 Z0.479 F300.000
G1 X18.950 Y-7.859 Z0.491 F300.000
G1 X18.950 Y-14.941 Z0.247 F300.000
G1 X18.942 Y-14.992 Z0.245 F300.000
G1 X18.891 Y-15.000 Z0.243 F300.000
G1 X11.809 Y-15.000 Z-0.001 F300.000
G1 X11.758 Y-14.992 Z-0.003 F300.000
G1 X11.750 Y-14.941 Z-0.005 F300.000
G1 X11.750 Y-7.859 Z-0.249 F300.000
G1 X11.758 Y-7.808 Z-0.251 F300.000
G1 X11.809 Y-7.800 Z-0.253 F300.000
G1 X18.891 Y-7.800 Z-0.497 F300.000
G1 X18.933 Y-7.801 Z-0.498 F300.000
G1 X18.955 Y-7.838 Z-0.500 F300.000
G0 X18.955 Y-7.838 Z5.000
G0 X9.255 Y-8.038 Z5.000
G0 X9.255 Y-8.038 Z0.500
G1 X9.227 Y-8.002 Z0.512 F300.000
G1 X9.180 Y-8.009 Z0.505 F300.000
G1 X9.170 Y-8.052 Z0.486 F300.000
G1 X9.209 Y-8.080 Z0.479 F300.000
G1 X9.250 Y-8.059 Z0.491 F300.000
G1 X9.250 Y-14.941 Z0.247 F300.000
G1 X9.242 Y-14.992 Z0.245 F300.000
G1 X9.191 Y-15.000 Z0.243 F300.000
G1 X2.309 Y-15.000 Z-0.001 F300.000
G1 X2.258 Y-14.992 Z-0.003 F300.000
G1 X2.250 Y-14.941 Z-0.005 F300.000
G1 X2.250 Y-8.059 Z-0.249 F300.000
G1 X2.258 Y-8.008 Z-0.251 F300.000
G1 X2.309 Y-8.000 Z-0.253 F300.000
G1 X9.191 Y-8.000 Z-0.497 F300.000
G1 X9.233 Y-8.001 Z-0.498 F300.000
G1 X9.255 Y-8.038 Z-0.500 F300.000
G1 X9.227 Y-8.002 Z-0.488 F300.000
G1 X9.180 Y-8.009 Z-0.495 F300.000
G1 X9.170 Y-8.052 Z-0.514 F300.000
G1 X9.209 Y-8.080 Z-0.521 F300.000
G1 X9.250 Y-8.059 Z-0.509 F300.000
G1 X9.250 Y-14.941 Z-0.753 F300.000
G1 X9.242 Y-14.992 Z-0.755 F300.000
G1 X9.191 Y-15.000 Z-0.757 F300.000
G1 X2.309 Y-15.000 Z-1.001 F300.000
G1 X2.258 Y-14.992 Z-1.003 F300.000
G1 X2.250 Y-14.941 Z-1.005 F300.000
G1 X2.250 Y-8.059 Z-1.249 F300.000
G1 X2.258 Y-8.008 Z-1.251 F300.000
G1 X2.309 Y-8.000 Z-1.253 F300.000
G1 X9.191 Y-8.000 Z-1.497 F300.000
G1 X9.233 Y-8.001 Z-1.498 F300.000
G1 X9.255 Y-8.038 Z-1.500 F300.000
G3 X9.250 Y-8.059 Z-1.500 I-0.044 J-0.001 K0.000 F300.000
G1 X9.250 Y-14.941 Z-1.500 F300.000
G2 X9.191 Y-15.000 Z-1.500 I-0.039 J-0.020 K0.000 F300.000
G1 X2.309 Y-15.000 Z-1.500 F300.000
G2 X2.250 Y-14.941 Z-1.500 I-0.020 J0.039 K0.000 F300.000
G1 X2.250 Y-8.059 Z-1.500 F300.000
G2 X2.309 Y-8.000 Z-1.500 I0.039 J0.020 K0.000 F300.000
G1 X9.191 Y-8.000 Z-1.500 F300.000
G2 X9.255 Y-8.038 Z-1.500 I0.020 J-0.039 K0.000 F300.000
G0 X9.255 Y-8.038 Z5.000
G0 X11.750 Y-8.038 Z5.000
G0 X11.750 Y-8.038 Z0.500
G1 X11.750 Y-7.859 Z0.488 F300.000
G1 X11.758 Y-7.808 Z0.484 F300.000
G1 X11.809 Y-7.800 Z0.480 F300.000
G1 X18.891 Y-7.800 Z-0.012 F300.000
G1 X18.942 Y-7.808 Z-0.016 F300.000
G1 X18.950 Y-7.859 Z-0.020 F300.000
G1 X18.950 Y-14.941 Z-0.512 F300.000
G1 X18.942 Y-14.992 Z-0.516 F300.000
G1 X18.891 Y-15.000 Z-0.520 F300.000
G1 X11.809 Y-15.000 Z-1.012 F300.000
G1 X11.758 Y-14.992 Z-1.016 F300.000
G1 X11.750 Y-14.941 Z-1.020 F300.000
G1 X11.750 Y-8.038 Z-1.500 F300.000
G1 X11.750 Y-7.859 Z-1.500 F300.000
G2 X11.809 Y-7.800 Z-1.500 I0.039 J0.020 K0.000 F300.000
G1 X18.891 Y-7.800 Z-1.500 F300.000
G2 X18.950 Y-7.859 Z-1.500 I0.020 J-0.039 K0.000 F300.000
G1 X18.950 Y-14.941 Z-1.500 F300.000
G2 X18.891 Y-15.000 Z-1.500 I-0.039 J-0.020 K0.000 F300.000
G1 X11.809 Y-15.000 Z-1.500 F300.000
G2 X11.750 Y-14.941 Z-1.500 I-0.020 J0.039 K0.000 F300.000
G1 X11.750 Y-8.038 Z-1.500 F300.000
G0 X11.750 Y-8.038 Z5.000
G0 X21.650 Y-8.038 Z5.000
G0 X21.650 Y-8.038 Z0.500
G1 X21.650 Y-7.659 Z0.474 F300.000
G1 X21.658 Y-7.608 Z0.471 F300.000
G1 X21.709 Y-7.600 Z0.467 F300.000
G1 X28.991 Y-7.600 Z-0.026 F300.000
G1 X29.042 Y-7.608 Z-0.029 F300.000
G1 X29.050 Y-7.659 Z-0.033 F300.000
G1 X29.050 Y-14.941 Z-0.526 F300.000
G1 X29.042 Y-14.992 Z-0.529 F300.000
G1 X28.991 Y-15.000 Z-0.533 F300.000
G1 X21.709 Y-15.000 Z-1.026 F300.000
G1 X21.658 Y-14.992 Z-1.029 F300.000
G1 X21.650 Y-14.941 Z-1.033 F300.000
G1 X21.650 Y-8.038 Z-1.500 F300.000
G1 X21.650 Y-7.659 Z-1.500 F300.000
G2 X21.709 Y-7.600 Z-1.500 I0.039 J0.020 K0.000 F300.000
G1 X28.991 Y-7.600 Z-1.500 F300.000
G2 X29.050 Y-7.659 Z-1.500 I0.020 J-0.039 K0.000 F300.000
G1 X29.050 Y-14.941 Z-1.500 F300.000
G2 X28.991 Y-15.000 Z-1.500 I-0.039 J-0.020 K0.000 F300.000
G1 X21.709 Y-15.000 Z-1.500 F300.000
G2 X21.650 Y-14.941 Z-1.500 I-0.020 J0.039 K0.000 F300.000
G1 X21.650 Y-8.038 Z-1.500 F300.000
G0 X21.650 Y-8.038 Z5.000
G0 X31.950 Y-8.038 Z5.000
G0 X31.950 Y-8.038 Z0.500
G1 X31.950 Y-7.459 Z0.462 F300.000
G1 X31.958 Y-7.408 Z0.458 F300.000
G1 X32.009 Y-7.400 Z0.455 F300.000
G1 X39.491 Y-7.400 Z-0.038 F300.000
G1 X39.542 Y-7.408 Z-0.042 F300.000
G1 X39.550 Y-7.459 Z-0.045 F300.000
G1 X39.550 Y-14.941 Z-0.538 F300.000
G1 X39.542 Y-14.992 Z-0.542 F300.000
G1 X39.491 Y-15.000 Z-0.545 F300.000
G1 X32.009 Y-15.000 Z-1.038 F300.000
G1 X31.958 Y-14.992 Z-1.042 F300.000
G1 X31.950 Y-14.941 Z-1.045 F300.000
G1 X31.950 Y-8.038 Z-1.500 F300.000
G1 X31.950 Y-7.459 Z-1.500 F300.000
G2 X32.009 Y-7.400 Z-1.500 I0.039 J0.020 K0.000 F300.000
G1 X39.491 Y-7.400 Z-1.500 F300.000
G2 X39.550 Y-7.459 Z-1.500 I0.020 J-0.039 K0.000 F300.000
G1 X39.550 Y-14.941 Z-1.500 F300.000
G2 X39.491 Y-15.000 Z-1.500 I-0.039 J-0.020 K0.000 F300.000
G1 X32.009 Y-15.000 Z-1.500 F300.000
G2 X31.950 Y-14.941 Z-1.500 I-0.020 J0.039 K0.000 F300.000
G1 X31.950 Y-8.038 Z-1.500 F300.000
G0 X31.950 Y-8.038 Z5.000
G0 X42.650 Y-8.038 Z5.000
G0 X42.650 Y-8.038 Z0.500
G1 X42.650 Y-7.259 Z0.450 F300.000
G1 X42.658 Y-7.208 Z0.446 F300.000
G1 X42.709 Y-7.200 Z0.443 F300.000
G1 X50.391 Y-7.200 Z-0.050 F300.000
G1 X50.442 Y-7.208 Z-0.054 F300.000
G1 X50.450 Y-7.259 Z-0.057 F300.000
G1 X50.450 Y-14.941 Z-0.550 F300.000
G1 X50.442 Y-14.992 Z-0.554 F300.000
G1 X50.391 Y-15.000 Z-0.557 F300.000
G1 X42.709 Y-15.000 Z-1.050 F300.000
G1 X42.658 Y-14.992 Z-1.054 F300.000
G1 X42.650 Y-14.941 Z-1.057 F300.000
G1 X42.650 Y-8.038 Z-1.500 F300.000
G1 X42.650 Y-7.259 Z-1.500 F300.000
G2 X42.709 Y-7.200 Z-1.500 I0.039 J0.020 K0.000 F300.000
G1 X50.391 Y-7.200 Z-1.500 F300.000
G2 X50.450 Y-7.259 Z-1.500 I0.020 J-0.039 K0.000 F300.000
G1 X50.450 Y-14.941 Z-1.500 F300.000
G2 X50.391 Y-15.000 Z-1.500 I-0.039 J-0.020 K0.000 F300.000
G1 X42.709 Y-15.000 Z-1.500 F300.000
G2 X42.650 Y-14.941 Z-1.500 I-0.020 J0.039 K0.000 F300.000
G1 X42.650 Y-8.038 Z-1.500 F300.000
G0 X42.650 Y-8.038 Z5.000
(Finish operation: RampEntryDressup)
(Begin postamble)
M5
G17 G90
M2
