(Exported by FreeCAD)
(Post Processor: grbl_post)
(Output Time:2023-11-24 22:35:00.351310)
(Begin preamble)
G17 G90
G21
(Begin operation: Fixture)
(Path: Fixture)
G54
(Finish operation: Fixture)
(Begin operation: TC: endmill_FC1D317)
(Path: TC: endmill_FC1D317)
(TC: endmill_FC1D317)
(Begin toolchange)
( M6 T1.0 )
M3 S10.0
(Finish operation: TC: endmill_FC1D317)
(Begin operation: Pocket_Shape)
(Path: Pocket_Shape)
(Pocket_Shape)
G0 Z5.000
G0 X8.412 Y-8.838
G0 Z0.500
G1 X8.412 Y-8.838 Z-1.500 F300.000
G1 X8.412 Y-14.162 Z-1.500 F600.000
G1 X3.087 Y-14.162 Z-1.500 F600.000
G1 X3.088 Y-8.838 Z-1.500 F600.000
G1 X8.412 Y-8.838 Z-1.500 F600.000
G0 Z5.000
G0 Y-14.162 Z5.000
G0 Y-14.162 Z0.500
G1 X8.412 Y-14.162 Z-1.500 F300.000
G1 X8.412 Y-9.672 Z-1.500 F600.000
G1 X3.922 Y-14.162 Z-1.500 F600.000
G1 X3.088 Y-14.162 Z-1.500 F600.000
G1 X3.088 Y-10.507 Z-1.500 F600.000
G1 X3.088 Y-8.838 Z-1.500 F600.000
G1 X4.757 Y-8.838 Z-1.500 F600.000
G1 X3.088 Y-10.507 Z-1.500 F600.000
G0 Z5.000
G0 Z5.000
G0 X3.088 Y-10.507
G0 X12.588
G0 X12.588 Z0.500
G1 X12.588 Y-10.507 Z-1.500 F300.000
G1 X12.588 Y-8.638 Z-1.500 F600.000
G1 X18.112 Y-8.638 Z-1.500 F600.000
G1 X18.112 Y-14.162 Z-1.500 F600.000
G1 X12.588 Y-14.162 Z-1.500 F600.000
G1 X12.588 Y-10.507 Z-1.500 F600.000
G0 Z5.000
G0 Y-10.707 Z5.000
G0 Y-10.707 Z0.500
G1 X12.588 Y-10.707 Z-1.500 F300.000
G1 X14.657 Y-8.638 Z-1.500 F600.000
G1 X12.588 Y-8.638 Z-1.500 F600.000
G1 X12.588 Y-10.707 Z-1.500 F600.000
G1 X12.588 Y-14.162 Z-1.500 F600.000
G1 X13.622 Y-14.162 Z-1.500 F600.000
G1 X18.112 Y-9.672 Z-1.500 F600.000
G1 X18.112 Y-14.162 Z-1.500 F600.000
G0 Z5.000
G0 Z5.000
G0 X18.112 Y-14.162
G0 X22.488
G0 X22.488 Z0.500
G1 X22.488 Y-14.162 Z-1.500 F300.000
G1 X22.488 Y-8.438 Z-1.500 F600.000
G1 X28.212 Y-8.438 Z-1.500 F600.000
G1 X28.212 Y-14.162 Z-1.500 F600.000
G1 X22.488 Y-14.162 Z-1.500 F600.000
G0 Z5.000
G0 Y-10.907 Z5.000
G0 Y-10.907 Z0.500
G1 X22.488 Y-10.907 Z-1.500 F300.000
G1 X24.957 Y-8.438 Z-1.500 F600.000
G1 X22.488 Y-8.438 Z-1.500 F600.000
G1 X22.488 Y-10.907 Z-1.500 F600.000
G1 X22.488 Y-14.162 Z-1.500 F600.000
G1 X23.722 Y-14.162 Z-1.500 F600.000
G1 X28.212 Y-9.672 Z-1.500 F600.000
G1 X28.212 Y-14.162 Z-1.500 F600.000
G0 Z5.000
G0 Z5.000
G0 X28.212 Y-14.162
G0 X32.788 Y-14.162
G0 X32.788 Y-14.162 Z0.500
G1 X32.788 Y-14.162 Z-1.500 F300.000
G1 X32.788 Y-8.238 Z-1.500 F600.000
G1 X38.712 Y-8.238 Z-1.500 F600.000
G1 X38.712 Y-14.162 Z-1.500 F600.000
G1 X32.788 Y-14.162 Z-1.500 F600.000
G0 Z5.000
G0 Y-11.107 Z5.000
G0 Y-11.107 Z0.500
G1 X32.788 Y-11.107 Z-1.500 F300.000
G1 X35.657 Y-8.238 Z-1.500 F600.000
G1 X32.788 Y-8.238 Z-1.500 F600.000
G1 X32.788 Y-11.107 Z-1.500 F600.000
G1 X32.788 Y-14.162 Z-1.500 F600.000
G1 X34.222 Y-14.162 Z-1.500 F600.000
G1 X38.712 Y-9.672 Z-1.500 F600.000
G1 X38.712 Y-14.162 Z-1.500 F600.000
G0 Z5.000
G0 Z5.000
G0 X38.712 Y-14.162
G0 X43.488
G0 X43.488 Z0.500
G1 X43.488 Y-14.162 Z-1.500 F300.000
G1 X43.488 Y-8.038 Z-1.500 F600.000
G1 X49.612 Y-8.038 Z-1.500 F600.000
G1 X49.612 Y-14.162 Z-1.500 F600.000
G1 X43.488 Y-14.162 Z-1.500 F600.000
G0 Z5.000
G0 Y-11.307 Z5.000
G0 Y-11.307 Z0.500
G1 X43.488 Y-11.307 Z-1.500 F300.000
G1 X46.757 Y-8.038 Z-1.500 F600.000
G1 X43.488 Y-8.038 Z-1.500 F600.000
G1 X43.488 Y-11.307 Z-1.500 F600.000
G1 X43.488 Y-14.162 Z-1.500 F600.000
G1 X45.122 Y-14.162 Z-1.500 F600.000
G1 X49.612 Y-9.672 Z-1.500 F600.000
G1 X49.612 Y-14.162 Z-1.500 F600.000
G0 Z5.000
G0 Z5.000
(Finish operation: Pocket_Shape)
(Begin postamble)
M5
G17 G90
M2
