(Exported by FreeCAD)
(Post Processor: grbl_post)
(Output Time:2023-12-18 16:31:38.271026)
(Begin preamble)
G17 G90
G21
(Begin operation: Fixture)
(Path: Fixture)
G54
(Finish operation: Fixture)
(Begin operation: TC: endmill_FC1D318)
(Path: TC: endmill_FC1D318)
(TC: endmill_FC1D318)
(Begin toolchange)
( M6 T1.0 )
M3 S10000.0
(Finish operation: TC: endmill_FC1D318)
(Begin operation: Pocket_Shape001)
(Path: Pocket_Shape001)
(Pocket_Shape001)
G0 Z5.000
G0 X11.912 Y-16.088
G0 Z1.000
G1 X11.912 Y-16.088 Z-2.000 F300.000
G1 X11.912 Y-21.412 Z-2.000 F600.000
G1 X6.588 Y-21.412 Z-2.000 F600.000
G1 X6.588 Y-16.088 Z-2.000 F600.000
G1 X11.912 Y-16.088 Z-2.000 F600.000
G0 Z5.000
G0 Y-21.412 Z5.000
G0 Y-21.412 Z1.000
G1 X11.912 Y-21.412 Z-2.000 F300.000
G1 X11.912 Y-16.922 Z-2.000 F600.000
G1 X7.422 Y-21.412 Z-2.000 F600.000
G1 X6.588 Y-21.412 Z-2.000 F600.000
G1 X6.588 Y-17.757 Z-2.000 F600.000
G1 X6.588 Y-16.088 Z-2.000 F600.000
G1 X8.257 Y-16.088 Z-2.000 F600.000
G1 X6.588 Y-17.757 Z-2.000 F600.000
G0 Z5.000
G0 Z5.000
G0 X6.588 Y-17.757
G0 X16.087
G0 X16.087 Z1.000
G1 X16.087 Y-17.757 Z-2.000 F300.000
G1 X16.087 Y-16.088 Z-2.000 F600.000
G1 X21.412 Y-16.088 Z-2.000 F600.000
G1 X21.412 Y-21.412 Z-2.000 F600.000
G1 X16.087 Y-21.412 Z-2.000 F600.000
G1 X16.087 Y-17.757 Z-2.000 F600.000
G0 Z5.000
G0 Y-17.757 Z5.000
G0 Y-17.757 Z1.000
G1 X16.088 Y-17.757 Z-2.000 F300.000
G1 X17.757 Y-16.088 Z-2.000 F600.000
G1 X16.088 Y-16.088 Z-2.000 F600.000
G1 X16.088 Y-17.757 Z-2.000 F600.000
G1 X16.088 Y-21.412 Z-2.000 F600.000
G1 X16.922 Y-21.412 Z-2.000 F600.000
G1 X21.412 Y-16.922 Z-2.000 F600.000
G1 X21.412 Y-21.412 Z-2.000 F600.000
G0 Z5.000
G0 Z5.000
G0 X21.412 Y-21.412
G0 X21.413 Y-25.587
G0 X21.413 Y-25.587 Z1.000
G1 X21.413 Y-25.587 Z-2.000 F300.000
G1 X21.413 Y-30.913 Z-2.000 F600.000
G1 X16.088 Y-30.913 Z-2.000 F600.000
G1 X16.088 Y-25.587 Z-2.000 F600.000
G1 X21.413 Y-25.587 Z-2.000 F600.000
G0 Z5.000
G0 Y-30.912 Z5.000
G0 Y-30.912 Z1.000
G1 X21.412 Y-30.912 Z-2.000 F300.000
G1 X21.412 Y-26.422 Z-2.000 F600.000
G1 X16.922 Y-30.912 Z-2.000 F600.000
G1 X16.088 Y-30.912 Z-2.000 F600.000
G1 X16.088 Y-27.257 Z-2.000 F600.000
G1 X16.088 Y-25.588 Z-2.000 F600.000
G1 X17.757 Y-25.588 Z-2.000 F600.000
G1 X16.088 Y-27.257 Z-2.000 F600.000
G0 Z5.000
G0 Z5.000
G0 X16.088 Y-27.257
G0 X25.588
G0 X25.588 Z1.000
G1 X25.588 Y-27.257 Z-2.000 F300.000
G1 X25.588 Y-25.587 Z-2.000 F600.000
G1 X30.912 Y-25.587 Z-2.000 F600.000
G1 X30.912 Y-30.913 Z-2.000 F600.000
G1 X25.588 Y-30.913 Z-2.000 F600.000
G1 X25.588 Y-27.257 Z-2.000 F600.000
G1 X25.588 Y-27.257 Z-2.000 F300.000
G1 X27.257 Y-25.588 Z-2.000 F600.000
G1 X25.588 Y-25.588 Z-2.000 F600.000
G1 X25.588 Y-27.257 Z-2.000 F600.000
G1 X25.588 Y-30.912 Z-2.000 F600.000
G1 X26.422 Y-30.912 Z-2.000 F600.000
G1 X30.912 Y-26.422 Z-2.000 F600.000
G1 X30.912 Y-30.912 Z-2.000 F600.000
G0 Z5.000
G0 Z5.000
G0 X30.912 Y-30.912
G0 X30.912 Y-21.412
G0 X30.912 Y-21.412 Z1.000
G1 X30.912 Y-21.412 Z-2.000 F300.000
G1 X25.587 Y-21.412 Z-2.000 F600.000
G1 X25.587 Y-16.088 Z-2.000 F600.000
G1 X30.913 Y-16.088 Z-2.000 F600.000
G1 X30.912 Y-21.412 Z-2.000 F600.000
G1 X30.912 Y-21.412 Z-2.000 F300.000
G1 X30.912 Y-16.922 Z-2.000 F600.000
G1 X26.422 Y-21.412 Z-2.000 F600.000
G1 X25.588 Y-21.412 Z-2.000 F600.000
G1 X25.588 Y-17.757 Z-2.000 F600.000
G1 X25.588 Y-16.088 Z-2.000 F600.000
G1 X27.257 Y-16.088 Z-2.000 F600.000
G1 X25.588 Y-17.757 Z-2.000 F600.000
G0 Z5.000
G0 Z5.000
G0 X25.588 Y-17.757
G0 Y-11.912
G0 Y-11.912 Z1.000
G1 X25.588 Y-11.912 Z-2.000 F300.000
G1 X25.588 Y-6.588 Z-2.000 F600.000
G1 X30.913 Y-6.588 Z-2.000 F600.000
G1 X30.913 Y-11.912 Z-2.000 F600.000
G1 X25.588 Y-11.912 Z-2.000 F600.000
G0 Z5.000
G0 Y-8.257 Z5.000
G0 Y-8.257 Z1.000
G1 X25.588 Y-8.257 Z-2.000 F300.000
G1 X27.257 Y-6.588 Z-2.000 F600.000
G1 X25.588 Y-6.588 Z-2.000 F600.000
G1 X25.588 Y-8.257 Z-2.000 F600.000
G1 X25.588 Y-11.912 Z-2.000 F600.000
G1 X26.422 Y-11.912 Z-2.000 F600.000
G1 X30.912 Y-7.422 Z-2.000 F600.000
G1 X30.912 Y-11.912 Z-2.000 F600.000
G0 Z5.000
G0 Z5.000
G0 X30.912 Y-11.912
G0 X21.413
G0 X21.413 Z1.000
G1 X21.413 Y-11.912 Z-2.000 F300.000
G1 X16.088 Y-11.912 Z-2.000 F600.000
G1 X16.088 Y-6.588 Z-2.000 F600.000
G1 X21.413 Y-6.588 Z-2.000 F600.000
G1 X21.413 Y-11.912 Z-2.000 F600.000
G1 X21.412 Y-11.912 Z-2.000 F300.000
G1 X21.412 Y-7.422 Z-2.000 F600.000
G1 X16.922 Y-11.912 Z-2.000 F600.000
G1 X16.088 Y-11.912 Z-2.000 F600.000
G1 X16.088 Y-8.257 Z-2.000 F600.000
G1 X16.088 Y-6.588 Z-2.000 F600.000
G1 X17.757 Y-6.588 Z-2.000 F600.000
G1 X16.088 Y-8.257 Z-2.000 F600.000
G0 Z5.000
G0 Z5.000
G0 X16.088 Y-8.257
G0 X35.088
G0 X35.088 Z1.000
G1 X35.088 Y-8.257 Z-2.000 F300.000
G1 X35.088 Y-6.588 Z-2.000 F600.000
G1 X40.413 Y-6.588 Z-2.000 F600.000
G1 X40.413 Y-11.912 Z-2.000 F600.000
G1 X35.088 Y-11.912 Z-2.000 F600.000
G1 X35.088 Y-8.257 Z-2.000 F600.000
G1 X35.088 Y-8.257 Z-2.000 F300.000
G1 X36.757 Y-6.588 Z-2.000 F600.000
G1 X35.088 Y-6.588 Z-2.000 F600.000
G1 X35.088 Y-8.257 Z-2.000 F600.000
G1 X35.088 Y-11.912 Z-2.000 F600.000
G1 X35.922 Y-11.912 Z-2.000 F600.000
G1 X40.412 Y-7.422 Z-2.000 F600.000
G1 X40.412 Y-11.912 Z-2.000 F600.000
G0 Z5.000
G0 Z5.000
G0 X40.412 Y-11.912
G0 Y-16.088
G0 Y-16.088 Z1.000
G1 X40.412 Y-16.088 Z-2.000 F300.000
G1 X40.412 Y-21.412 Z-2.000 F600.000
G1 X35.088 Y-21.412 Z-2.000 F600.000
G1 X35.088 Y-16.088 Z-2.000 F600.000
G1 X40.412 Y-16.088 Z-2.000 F600.000
G0 Z5.000
G0 Y-21.412 Z5.000
G0 Y-21.412 Z1.000
G1 X40.412 Y-21.412 Z-2.000 F300.000
G1 X40.412 Y-16.922 Z-2.000 F600.000
G1 X35.922 Y-21.412 Z-2.000 F600.000
G1 X35.088 Y-21.412 Z-2.000 F600.000
G1 X35.088 Y-17.757 Z-2.000 F600.000
G1 X35.088 Y-16.088 Z-2.000 F600.000
G1 X36.757 Y-16.088 Z-2.000 F600.000
G1 X35.088 Y-17.757 Z-2.000 F600.000
G0 Z5.000
G0 Z5.000
G0 X35.088 Y-17.757
G0 Y-25.587
G0 Y-25.587 Z1.000
G1 X35.088 Y-25.587 Z-2.000 F300.000
G1 X40.412 Y-25.587 Z-2.000 F600.000
G1 X40.412 Y-30.913 Z-2.000 F600.000
G1 X35.088 Y-30.913 Z-2.000 F600.000
G1 X35.088 Y-25.587 Z-2.000 F600.000
G0 Z5.000
G0 Y-27.257 Z5.000
G0 Y-27.257 Z1.000
G1 X35.088 Y-27.257 Z-2.000 F300.000
G1 X36.757 Y-25.588 Z-2.000 F600.000
G1 X35.088 Y-25.588 Z-2.000 F600.000
G1 X35.088 Y-27.257 Z-2.000 F600.000
G1 X35.088 Y-30.912 Z-2.000 F600.000
G1 X35.922 Y-30.912 Z-2.000 F600.000
G1 X40.412 Y-26.422 Z-2.000 F600.000
G1 X40.412 Y-30.912 Z-2.000 F600.000
G0 Z5.000
G0 Z5.000
G0 X40.412 Y-30.912
G0 X44.587
G0 X44.587 Z1.000
G1 X44.587 Y-30.913 Z-2.000 F300.000
G1 X44.587 Y-25.587 Z-2.000 F600.000
G1 X49.913 Y-25.587 Z-2.000 F600.000
G1 X49.913 Y-30.913 Z-2.000 F600.000
G1 X44.587 Y-30.913 Z-2.000 F600.000
G0 Z5.000
G0 Y-27.257 Z5.000
G0 Y-27.257 Z1.000
G1 X44.588 Y-27.257 Z-2.000 F300.000
G1 X46.257 Y-25.588 Z-2.000 F600.000
G1 X44.588 Y-25.588 Z-2.000 F600.000
G1 X44.588 Y-27.257 Z-2.000 F600.000
G1 X44.588 Y-30.912 Z-2.000 F600.000
G1 X45.422 Y-30.912 Z-2.000 F600.000
G1 X49.912 Y-26.422 Z-2.000 F600.000
G1 X49.912 Y-30.912 Z-2.000 F600.000
G0 Z5.000
G0 Z5.000
G0 X49.912 Y-30.912
G0 Y-21.412
G0 Y-21.412 Z1.000
G1 X49.912 Y-21.412 Z-2.000 F300.000
G1 X44.587 Y-21.412 Z-2.000 F600.000
G1 X44.587 Y-16.088 Z-2.000 F600.000
G1 X49.913 Y-16.088 Z-2.000 F600.000
G1 X49.912 Y-21.412 Z-2.000 F600.000
G1 X49.912 Y-21.412 Z-2.000 F300.000
G1 X49.912 Y-16.922 Z-2.000 F600.000
G1 X45.422 Y-21.412 Z-2.000 F600.000
G1 X44.588 Y-21.412 Z-2.000 F600.000
G1 X44.588 Y-17.757 Z-2.000 F600.000
G1 X44.588 Y-16.088 Z-2.000 F600.000
G1 X46.257 Y-16.088 Z-2.000 F600.000
G1 X44.588 Y-17.757 Z-2.000 F600.000
G0 Z5.000
G0 Z5.000
G0 X44.588 Y-17.757
G0 Y-11.912
G0 Y-11.912 Z1.000
G1 X44.588 Y-11.912 Z-2.000 F300.000
G1 X44.588 Y-6.588 Z-2.000 F600.000
G1 X49.913 Y-6.588 Z-2.000 F600.000
G1 X49.913 Y-11.912 Z-2.000 F600.000
G1 X44.588 Y-11.912 Z-2.000 F600.000
G0 Z5.000
G0 Y-8.257 Z5.000
G0 Y-8.257 Z1.000
G1 X44.588 Y-8.257 Z-2.000 F300.000
G1 X46.257 Y-6.588 Z-2.000 F600.000
G1 X44.588 Y-6.588 Z-2.000 F600.000
G1 X44.588 Y-8.257 Z-2.000 F600.000
G1 X44.588 Y-11.912 Z-2.000 F600.000
G1 X45.422 Y-11.912 Z-2.000 F600.000
G1 X49.912 Y-7.422 Z-2.000 F600.000
G1 X49.912 Y-11.912 Z-2.000 F600.000
G0 Z5.000
G0 Z5.000
G0 X49.912 Y-11.912
G0 X54.088
G0 X54.088 Z1.000
G1 X54.088 Y-11.912 Z-2.000 F300.000
G1 X54.088 Y-6.588 Z-2.000 F600.000
G1 X59.413 Y-6.588 Z-2.000 F600.000
G1 X59.413 Y-11.912 Z-2.000 F600.000
G1 X54.088 Y-11.912 Z-2.000 F600.000
G0 Z5.000
G0 Y-8.257 Z5.000
G0 Y-8.257 Z1.000
G1 X54.088 Y-8.257 Z-2.000 F300.000
G1 X55.757 Y-6.588 Z-2.000 F600.000
G1 X54.088 Y-6.588 Z-2.000 F600.000
G1 X54.088 Y-8.257 Z-2.000 F600.000
G1 X54.088 Y-11.912 Z-2.000 F600.000
G1 X54.922 Y-11.912 Z-2.000 F600.000
G1 X59.412 Y-7.422 Z-2.000 F600.000
G1 X59.412 Y-11.912 Z-2.000 F600.000
G0 Z5.000
G0 Z5.000
G0 X59.412 Y-11.912
G0 Y-16.088
G0 Y-16.088 Z1.000
G1 X59.412 Y-16.088 Z-2.000 F300.000
G1 X59.412 Y-21.412 Z-2.000 F600.000
G1 X54.088 Y-21.412 Z-2.000 F600.000
G1 X54.088 Y-16.088 Z-2.000 F600.000
G1 X59.412 Y-16.088 Z-2.000 F600.000
G0 Z5.000
G0 Y-21.412 Z5.000
G0 Y-21.412 Z1.000
G1 X59.412 Y-21.412 Z-2.000 F300.000
G1 X59.412 Y-16.922 Z-2.000 F600.000
G1 X54.922 Y-21.412 Z-2.000 F600.000
G1 X54.088 Y-21.412 Z-2.000 F600.000
G1 X54.088 Y-17.757 Z-2.000 F600.000
G1 X54.088 Y-16.088 Z-2.000 F600.000
G1 X55.757 Y-16.088 Z-2.000 F600.000
G1 X54.088 Y-17.757 Z-2.000 F600.000
G0 Z5.000
G0 Z5.000
G0 X54.088 Y-17.757
G0 Y-25.587
G0 Y-25.587 Z1.000
G1 X54.088 Y-25.587 Z-2.000 F300.000
G1 X59.412 Y-25.587 Z-2.000 F600.000
G1 X59.412 Y-30.913 Z-2.000 F600.000
G1 X54.088 Y-30.913 Z-2.000 F600.000
G1 X54.088 Y-25.587 Z-2.000 F600.000
G0 Z5.000
G0 Y-27.257 Z5.000
G0 Y-27.257 Z1.000
G1 X54.088 Y-27.257 Z-2.000 F300.000
G1 X55.757 Y-25.588 Z-2.000 F600.000
G1 X54.088 Y-25.588 Z-2.000 F600.000
G1 X54.088 Y-27.257 Z-2.000 F600.000
G1 X54.088 Y-30.912 Z-2.000 F600.000
G1 X54.922 Y-30.912 Z-2.000 F600.000
G1 X59.412 Y-26.422 Z-2.000 F600.000
G1 X59.412 Y-30.912 Z-2.000 F600.000
G0 Z5.000
G0 Z5.000
(Finish operation: Pocket_Shape001)
(Begin postamble)
M5
G17 G90
M2
