(Exported by FreeCAD)
(Post Processor: grbl_post)
(Output Time:2023-12-18 16:13:01.343696)
(Begin preamble)
G17 G90
G21
(Begin operation: Fixture)
(Path: Fixture)
G54
(Finish operation: Fixture)
(Begin operation: endmill_FC2DD152)
(Path: endmill_FC2DD152)
(endmill_FC2DD152)
(Begin toolchange)
( M6 T4.0 )
M3 S10000.0
(Finish operation: endmill_FC2DD152)
(Begin operation: RampEntryDressup001)
(Path: RampEntryDressup001)
G0 X0.000 Y0.000 Z5.000
G0 X22.242 Y-5.758 Z5.000
G0 X22.242 Y-5.758 Z1.000
G1 X22.191 Y-5.751 Z1.004 F300.000
G1 X22.168 Y-5.796 Z0.994 F300.000
G1 X22.204 Y-5.831 Z0.984 F300.000
G1 X22.250 Y-5.809 Z0.988 F300.000
G1 X22.250 Y-12.691 Z0.598 F300.000
G1 X22.242 Y-12.742 Z0.595 F300.000
G1 X22.191 Y-12.750 Z0.592 F300.000
G1 X15.309 Y-12.750 Z0.203 F300.000
G1 X15.258 Y-12.742 Z0.200 F300.000
G1 X15.250 Y-12.691 Z0.197 F300.000
G1 X15.250 Y-5.809 Z-0.192 F300.000
G1 X15.258 Y-5.758 Z-0.195 F300.000
G1 X15.309 Y-5.750 Z-0.198 F300.000
G1 X22.191 Y-5.750 Z-0.588 F300.000
G1 X22.169 Y-5.796 Z-0.584 F300.000
G1 X22.204 Y-5.832 Z-0.594 F300.000
G1 X22.249 Y-5.809 Z-0.604 F300.000
G1 X22.242 Y-5.758 Z-0.600 F300.000
G1 X22.191 Y-5.750 Z-0.599 F300.000
G1 X22.168 Y-5.796 Z-0.602 F300.000
G1 X22.204 Y-5.832 Z-0.606 F300.000
G1 X22.250 Y-5.809 Z-0.605 F300.000
G1 X22.250 Y-12.691 Z-0.751 F300.000
G1 X22.242 Y-12.742 Z-0.752 F300.000
G1 X22.191 Y-12.750 Z-0.753 F300.000
G1 X15.309 Y-12.750 Z-0.899 F300.000
G1 X15.258 Y-12.742 Z-0.900 F300.000
G1 X15.250 Y-12.691 Z-0.901 F300.000
G1 X15.250 Y-5.809 Z-1.047 F300.000
G1 X15.258 Y-5.758 Z-1.048 F300.000
G1 X15.309 Y-5.750 Z-1.049 F300.000
G1 X22.191 Y-5.750 Z-1.195 F300.000
G1 X22.168 Y-5.796 Z-1.194 F300.000
G1 X22.204 Y-5.832 Z-1.198 F300.000
G1 X22.250 Y-5.809 Z-1.201 F300.000
G1 X22.242 Y-5.758 Z-1.200 F300.000
G1 X22.191 Y-5.750 Z-1.199 F300.000
G1 X22.168 Y-5.796 Z-1.202 F300.000
G1 X22.204 Y-5.832 Z-1.206 F300.000
G1 X22.250 Y-5.809 Z-1.205 F300.000
G1 X22.250 Y-12.691 Z-1.351 F300.000
G1 X22.242 Y-12.742 Z-1.352 F300.000
G1 X22.191 Y-12.750 Z-1.353 F300.000
G1 X15.309 Y-12.750 Z-1.499 F300.000
G1 X15.258 Y-12.742 Z-1.500 F300.000
G1 X15.250 Y-12.691 Z-1.501 F300.000
G1 X15.250 Y-5.809 Z-1.647 F300.000
G1 X15.258 Y-5.758 Z-1.648 F300.000
G1 X15.309 Y-5.750 Z-1.649 F300.000
G1 X22.191 Y-5.750 Z-1.795 F300.000
G1 X22.168 Y-5.796 Z-1.794 F300.000
G1 X22.204 Y-5.832 Z-1.798 F300.000
G1 X22.250 Y-5.809 Z-1.801 F300.000
G1 X22.242 Y-5.758 Z-1.800 F300.000
G1 X22.191 Y-5.750 Z-1.800 F300.000
G1 X22.168 Y-5.796 Z-1.801 F300.000
G1 X22.204 Y-5.832 Z-1.802 F300.000
G1 X22.250 Y-5.809 Z-1.802 F300.000
G1 X22.250 Y-12.691 Z-1.850 F300.000
G1 X22.242 Y-12.742 Z-1.851 F300.000
G1 X22.191 Y-12.750 Z-1.851 F300.000
G1 X15.309 Y-12.750 Z-1.900 F300.000
G1 X15.258 Y-12.742 Z-1.900 F300.000
G1 X15.250 Y-12.691 Z-1.900 F300.000
G1 X15.250 Y-5.809 Z-1.949 F300.000
G1 X15.258 Y-5.758 Z-1.949 F300.000
G1 X15.309 Y-5.750 Z-1.950 F300.000
G1 X22.191 Y-5.750 Z-1.998 F300.000
G1 X22.168 Y-5.796 Z-1.998 F300.000
G1 X22.204 Y-5.832 Z-1.999 F300.000
G1 X22.250 Y-5.809 Z-2.000 F300.000
G1 X22.242 Y-5.758 Z-2.000 F300.000
G3 X22.250 Y-5.809 Z-2.000 I-0.031 J-0.031 K0.000 F300.000
G1 X22.250 Y-12.691 Z-2.000 F300.000
G2 X22.191 Y-12.750 Z-2.000 I-0.039 J-0.020 K0.000 F300.000
G1 X15.309 Y-12.750 Z-2.000 F300.000
G2 X15.250 Y-12.691 Z-2.000 I-0.020 J0.039 K0.000 F300.000
G1 X15.250 Y-5.809 Z-2.000 F300.000
G2 X15.309 Y-5.750 Z-2.000 I0.039 J0.020 K0.000 F300.000
G1 X22.191 Y-5.750 Z-2.000 F300.000
G3 X22.242 Y-5.758 Z-2.000 I0.020 J-0.039 K0.000 F300.000
G0 X22.242 Y-5.758 Z5.000
(Finish operation: RampEntryDressup001)
(Begin operation: RampEntryDressup002)
(Path: RampEntryDressup002)
G0 X0.000 Y0.000 Z5.000
G0 X31.742 Y-5.758 Z5.000
G0 X31.742 Y-5.758 Z1.000
G1 X31.691 Y-5.751 Z1.004 F300.000
G1 X31.668 Y-5.796 Z0.994 F300.000
G1 X31.704 Y-5.831 Z0.984 F300.000
G1 X31.750 Y-5.809 Z0.988 F300.000
G1 X31.750 Y-12.691 Z0.598 F300.000
G1 X31.742 Y-12.742 Z0.595 F300.000
G1 X31.691 Y-12.750 Z0.592 F300.000
G1 X24.809 Y-12.750 Z0.203 F300.000
G1 X24.758 Y-12.742 Z0.200 F300.000
G1 X24.750 Y-12.691 Z0.197 F300.000
G1 X24.750 Y-5.809 Z-0.192 F300.000
G1 X24.758 Y-5.758 Z-0.195 F300.000
G1 X24.809 Y-5.750 Z-0.198 F300.000
G1 X31.691 Y-5.750 Z-0.588 F300.000
G1 X31.669 Y-5.796 Z-0.584 F300.000
G1 X31.704 Y-5.832 Z-0.594 F300.000
G1 X31.749 Y-5.809 Z-0.604 F300.000
G1 X31.742 Y-5.758 Z-0.600 F300.000
G1 X31.691 Y-5.750 Z-0.599 F300.000
G1 X31.668 Y-5.796 Z-0.602 F300.000
G1 X31.704 Y-5.832 Z-0.606 F300.000
G1 X31.750 Y-5.809 Z-0.605 F300.000
G1 X31.750 Y-12.691 Z-0.751 F300.000
G1 X31.742 Y-12.742 Z-0.752 F300.000
G1 X31.691 Y-12.750 Z-0.753 F300.000
G1 X24.809 Y-12.750 Z-0.899 F300.000
G1 X24.758 Y-12.742 Z-0.900 F300.000
G1 X24.750 Y-12.691 Z-0.901 F300.000
G1 X24.750 Y-5.809 Z-1.047 F300.000
G1 X24.758 Y-5.758 Z-1.048 F300.000
G1 X24.809 Y-5.750 Z-1.049 F300.000
G1 X31.691 Y-5.750 Z-1.195 F300.000
G1 X31.668 Y-5.796 Z-1.194 F300.000
G1 X31.704 Y-5.832 Z-1.198 F300.000
G1 X31.750 Y-5.809 Z-1.201 F300.000
G1 X31.742 Y-5.758 Z-1.200 F300.000
G1 X31.691 Y-5.750 Z-1.199 F300.000
G1 X31.668 Y-5.796 Z-1.202 F300.000
G1 X31.704 Y-5.832 Z-1.206 F300.000
G1 X31.750 Y-5.809 Z-1.205 F300.000
G1 X31.750 Y-12.691 Z-1.351 F300.000
G1 X31.742 Y-12.742 Z-1.352 F300.000
G1 X31.691 Y-12.750 Z-1.353 F300.000
G1 X24.809 Y-12.750 Z-1.499 F300.000
G1 X24.758 Y-12.742 Z-1.500 F300.000
G1 X24.750 Y-12.691 Z-1.501 F300.000
G1 X24.750 Y-5.809 Z-1.647 F300.000
G1 X24.758 Y-5.758 Z-1.648 F300.000
G1 X24.809 Y-5.750 Z-1.649 F300.000
G1 X31.691 Y-5.750 Z-1.795 F300.000
G1 X31.668 Y-5.796 Z-1.794 F300.000
G1 X31.704 Y-5.832 Z-1.798 F300.000
G1 X31.750 Y-5.809 Z-1.801 F300.000
G1 X31.742 Y-5.758 Z-1.800 F300.000
G1 X31.691 Y-5.750 Z-1.800 F300.000
G1 X31.668 Y-5.796 Z-1.801 F300.000
G1 X31.704 Y-5.832 Z-1.802 F300.000
G1 X31.750 Y-5.809 Z-1.802 F300.000
G1 X31.750 Y-12.691 Z-1.850 F300.000
G1 X31.742 Y-12.742 Z-1.851 F300.000
G1 X31.691 Y-12.750 Z-1.851 F300.000
G1 X24.809 Y-12.750 Z-1.900 F300.000
G1 X24.758 Y-12.742 Z-1.900 F300.000
G1 X24.750 Y-12.691 Z-1.900 F300.000
G1 X24.750 Y-5.809 Z-1.949 F300.000
G1 X24.758 Y-5.758 Z-1.949 F300.000
G1 X24.809 Y-5.750 Z-1.950 F300.000
G1 X31.691 Y-5.750 Z-1.998 F300.000
G1 X31.668 Y-5.796 Z-1.998 F300.000
G1 X31.704 Y-5.832 Z-1.999 F300.000
G1 X31.750 Y-5.809 Z-2.000 F300.000
G1 X31.742 Y-5.758 Z-2.000 F300.000
G3 X31.750 Y-5.809 Z-2.000 I-0.031 J-0.031 K0.000 F300.000
G1 X31.750 Y-12.691 Z-2.000 F300.000
G2 X31.691 Y-12.750 Z-2.000 I-0.039 J-0.020 K0.000 F300.000
G1 X24.809 Y-12.750 Z-2.000 F300.000
G2 X24.750 Y-12.691 Z-2.000 I-0.020 J0.039 K0.000 F300.000
G1 X24.750 Y-5.809 Z-2.000 F300.000
G2 X24.809 Y-5.750 Z-2.000 I0.039 J0.020 K0.000 F300.000
G1 X31.691 Y-5.750 Z-2.000 F300.000
G3 X31.742 Y-5.758 Z-2.000 I0.020 J-0.039 K0.000 F300.000
G0 X31.742 Y-5.758 Z5.000
(Finish operation: RampEntryDressup002)
(Begin operation: RampEntryDressup003)
(Path: RampEntryDressup003)
G0 X0.000 Y0.000 Z5.000
G0 X41.242 Y-5.758 Z5.000
G0 X41.242 Y-5.758 Z1.000
G1 X41.191 Y-5.751 Z1.004 F300.000
G1 X41.168 Y-5.796 Z0.994 F300.000
G1 X41.204 Y-5.831 Z0.984 F300.000
G1 X41.250 Y-5.809 Z0.988 F300.000
G1 X41.250 Y-12.691 Z0.598 F300.000
G1 X41.242 Y-12.742 Z0.595 F300.000
G1 X41.191 Y-12.750 Z0.592 F300.000
G1 X34.309 Y-12.750 Z0.203 F300.000
G1 X34.258 Y-12.742 Z0.200 F300.000
G1 X34.250 Y-12.691 Z0.197 F300.000
G1 X34.250 Y-5.809 Z-0.192 F300.000
G1 X34.258 Y-5.758 Z-0.195 F300.000
G1 X34.309 Y-5.750 Z-0.198 F300.000
G1 X41.191 Y-5.750 Z-0.588 F300.000
G1 X41.169 Y-5.796 Z-0.584 F300.000
G1 X41.204 Y-5.832 Z-0.594 F300.000
G1 X41.249 Y-5.809 Z-0.604 F300.000
G1 X41.242 Y-5.758 Z-0.600 F300.000
G1 X41.191 Y-5.750 Z-0.599 F300.000
G1 X41.168 Y-5.796 Z-0.602 F300.000
G1 X41.204 Y-5.832 Z-0.606 F300.000
G1 X41.250 Y-5.809 Z-0.605 F300.000
G1 X41.250 Y-12.691 Z-0.751 F300.000
G1 X41.242 Y-12.742 Z-0.752 F300.000
G1 X41.191 Y-12.750 Z-0.753 F300.000
G1 X34.309 Y-12.750 Z-0.899 F300.000
G1 X34.258 Y-12.742 Z-0.900 F300.000
G1 X34.250 Y-12.691 Z-0.901 F300.000
G1 X34.250 Y-5.809 Z-1.047 F300.000
G1 X34.258 Y-5.758 Z-1.048 F300.000
G1 X34.309 Y-5.750 Z-1.049 F300.000
G1 X41.191 Y-5.750 Z-1.195 F300.000
G1 X41.168 Y-5.796 Z-1.194 F300.000
G1 X41.204 Y-5.832 Z-1.198 F300.000
G1 X41.250 Y-5.809 Z-1.201 F300.000
G1 X41.242 Y-5.758 Z-1.200 F300.000
G1 X41.191 Y-5.750 Z-1.199 F300.000
G1 X41.168 Y-5.796 Z-1.202 F300.000
G1 X41.204 Y-5.832 Z-1.206 F300.000
G1 X41.250 Y-5.809 Z-1.205 F300.000
G1 X41.250 Y-12.691 Z-1.351 F300.000
G1 X41.242 Y-12.742 Z-1.352 F300.000
G1 X41.191 Y-12.750 Z-1.353 F300.000
G1 X34.309 Y-12.750 Z-1.499 F300.000
G1 X34.258 Y-12.742 Z-1.500 F300.000
G1 X34.250 Y-12.691 Z-1.501 F300.000
G1 X34.250 Y-5.809 Z-1.647 F300.000
G1 X34.258 Y-5.758 Z-1.648 F300.000
G1 X34.309 Y-5.750 Z-1.649 F300.000
G1 X41.191 Y-5.750 Z-1.795 F300.000
G1 X41.168 Y-5.796 Z-1.794 F300.000
G1 X41.204 Y-5.832 Z-1.798 F300.000
G1 X41.250 Y-5.809 Z-1.801 F300.000
G1 X41.242 Y-5.758 Z-1.800 F300.000
G1 X41.191 Y-5.750 Z-1.800 F300.000
G1 X41.168 Y-5.796 Z-1.801 F300.000
G1 X41.204 Y-5.832 Z-1.802 F300.000
G1 X41.250 Y-5.809 Z-1.802 F300.000
G1 X41.250 Y-12.691 Z-1.850 F300.000
G1 X41.242 Y-12.742 Z-1.851 F300.000
G1 X41.191 Y-12.750 Z-1.851 F300.000
G1 X34.309 Y-12.750 Z-1.900 F300.000
G1 X34.258 Y-12.742 Z-1.900 F300.000
G1 X34.250 Y-12.691 Z-1.900 F300.000
G1 X34.250 Y-5.809 Z-1.949 F300.000
G1 X34.258 Y-5.758 Z-1.949 F300.000
G1 X34.309 Y-5.750 Z-1.950 F300.000
G1 X41.191 Y-5.750 Z-1.998 F300.000
G1 X41.168 Y-5.796 Z-1.998 F300.000
G1 X41.204 Y-5.832 Z-1.999 F300.000
G1 X41.250 Y-5.809 Z-2.000 F300.000
G1 X41.242 Y-5.758 Z-2.000 F300.000
G3 X41.250 Y-5.809 Z-2.000 I-0.031 J-0.031 K0.000 F300.000
G1 X41.250 Y-12.691 Z-2.000 F300.000
G2 X41.191 Y-12.750 Z-2.000 I-0.039 J-0.020 K0.000 F300.000
G1 X34.309 Y-12.750 Z-2.000 F300.000
G2 X34.250 Y-12.691 Z-2.000 I-0.020 J0.039 K0.000 F300.000
G1 X34.250 Y-5.809 Z-2.000 F300.000
G2 X34.309 Y-5.750 Z-2.000 I0.039 J0.020 K0.000 F300.000
G1 X41.191 Y-5.750 Z-2.000 F300.000
G3 X41.242 Y-5.758 Z-2.000 I0.020 J-0.039 K0.000 F300.000
G0 X41.242 Y-5.758 Z5.000
(Finish operation: RampEntryDressup003)
(Begin operation: RampEntryDressup004)
(Path: RampEntryDressup004)
G0 X0.000 Y0.000 Z5.000
G0 X50.742 Y-5.758 Z5.000
G0 X50.742 Y-5.758 Z1.000
G1 X50.691 Y-5.751 Z1.004 F300.000
G1 X50.668 Y-5.796 Z0.994 F300.000
G1 X50.704 Y-5.831 Z0.984 F300.000
G1 X50.750 Y-5.809 Z0.988 F300.000
G1 X50.750 Y-12.691 Z0.598 F300.000
G1 X50.742 Y-12.742 Z0.595 F300.000
G1 X50.691 Y-12.750 Z0.592 F300.000
G1 X43.809 Y-12.750 Z0.203 F300.000
G1 X43.758 Y-12.742 Z0.200 F300.000
G1 X43.750 Y-12.691 Z0.197 F300.000
G1 X43.750 Y-5.809 Z-0.192 F300.000
G1 X43.758 Y-5.758 Z-0.195 F300.000
G1 X43.809 Y-5.750 Z-0.198 F300.000
G1 X50.691 Y-5.750 Z-0.588 F300.000
G1 X50.669 Y-5.796 Z-0.584 F300.000
G1 X50.704 Y-5.832 Z-0.594 F300.000
G1 X50.749 Y-5.809 Z-0.604 F300.000
G1 X50.742 Y-5.758 Z-0.600 F300.000
G1 X50.691 Y-5.750 Z-0.599 F300.000
G1 X50.668 Y-5.796 Z-0.602 F300.000
G1 X50.704 Y-5.832 Z-0.606 F300.000
G1 X50.750 Y-5.809 Z-0.605 F300.000
G1 X50.750 Y-12.691 Z-0.751 F300.000
G1 X50.742 Y-12.742 Z-0.752 F300.000
G1 X50.691 Y-12.750 Z-0.753 F300.000
G1 X43.809 Y-12.750 Z-0.899 F300.000
G1 X43.758 Y-12.742 Z-0.900 F300.000
G1 X43.750 Y-12.691 Z-0.901 F300.000
G1 X43.750 Y-5.809 Z-1.047 F300.000
G1 X43.758 Y-5.758 Z-1.048 F300.000
G1 X43.809 Y-5.750 Z-1.049 F300.000
G1 X50.691 Y-5.750 Z-1.195 F300.000
G1 X50.668 Y-5.796 Z-1.194 F300.000
G1 X50.704 Y-5.832 Z-1.198 F300.000
G1 X50.750 Y-5.809 Z-1.201 F300.000
G1 X50.742 Y-5.758 Z-1.200 F300.000
G1 X50.691 Y-5.750 Z-1.199 F300.000
G1 X50.668 Y-5.796 Z-1.202 F300.000
G1 X50.704 Y-5.832 Z-1.206 F300.000
G1 X50.750 Y-5.809 Z-1.205 F300.000
G1 X50.750 Y-12.691 Z-1.351 F300.000
G1 X50.742 Y-12.742 Z-1.352 F300.000
G1 X50.691 Y-12.750 Z-1.353 F300.000
G1 X43.809 Y-12.750 Z-1.499 F300.000
G1 X43.758 Y-12.742 Z-1.500 F300.000
G1 X43.750 Y-12.691 Z-1.501 F300.000
G1 X43.750 Y-5.809 Z-1.647 F300.000
G1 X43.758 Y-5.758 Z-1.648 F300.000
G1 X43.809 Y-5.750 Z-1.649 F300.000
G1 X50.691 Y-5.750 Z-1.795 F300.000
G1 X50.668 Y-5.796 Z-1.794 F300.000
G1 X50.704 Y-5.832 Z-1.798 F300.000
G1 X50.750 Y-5.809 Z-1.801 F300.000
G1 X50.742 Y-5.758 Z-1.800 F300.000
G1 X50.691 Y-5.750 Z-1.800 F300.000
G1 X50.668 Y-5.796 Z-1.801 F300.000
G1 X50.704 Y-5.832 Z-1.802 F300.000
G1 X50.750 Y-5.809 Z-1.802 F300.000
G1 X50.750 Y-12.691 Z-1.850 F300.000
G1 X50.742 Y-12.742 Z-1.851 F300.000
G1 X50.691 Y-12.750 Z-1.851 F300.000
G1 X43.809 Y-12.750 Z-1.900 F300.000
G1 X43.758 Y-12.742 Z-1.900 F300.000
G1 X43.750 Y-12.691 Z-1.900 F300.000
G1 X43.750 Y-5.809 Z-1.949 F300.000
G1 X43.758 Y-5.758 Z-1.949 F300.000
G1 X43.809 Y-5.750 Z-1.950 F300.000
G1 X50.691 Y-5.750 Z-1.998 F300.000
G1 X50.668 Y-5.796 Z-1.998 F300.000
G1 X50.704 Y-5.832 Z-1.999 F300.000
G1 X50.750 Y-5.809 Z-2.000 F300.000
G1 X50.742 Y-5.758 Z-2.000 F300.000
G3 X50.750 Y-5.809 Z-2.000 I-0.031 J-0.031 K0.000 F300.000
G1 X50.750 Y-12.691 Z-2.000 F300.000
G2 X50.691 Y-12.750 Z-2.000 I-0.039 J-0.020 K0.000 F300.000
G1 X43.809 Y-12.750 Z-2.000 F300.000
G2 X43.750 Y-12.691 Z-2.000 I-0.020 J0.039 K0.000 F300.000
G1 X43.750 Y-5.809 Z-2.000 F300.000
G2 X43.809 Y-5.750 Z-2.000 I0.039 J0.020 K0.000 F300.000
G1 X50.691 Y-5.750 Z-2.000 F300.000
G3 X50.742 Y-5.758 Z-2.000 I0.020 J-0.039 K0.000 F300.000
G0 X50.742 Y-5.758 Z5.000
(Finish operation: RampEntryDressup004)
(Begin operation: RampEntryDressup005)
(Path: RampEntryDressup005)
G0 X0.000 Y0.000 Z5.000
G0 X60.242 Y-5.758 Z5.000
G0 X60.242 Y-5.758 Z1.000
G1 X60.191 Y-5.751 Z1.004 F300.000
G1 X60.168 Y-5.796 Z0.994 F300.000
G1 X60.204 Y-5.831 Z0.984 F300.000
G1 X60.250 Y-5.809 Z0.988 F300.000
G1 X60.250 Y-12.691 Z0.598 F300.000
G1 X60.242 Y-12.742 Z0.595 F300.000
G1 X60.191 Y-12.750 Z0.592 F300.000
G1 X53.309 Y-12.750 Z0.203 F300.000
G1 X53.258 Y-12.742 Z0.200 F300.000
G1 X53.250 Y-12.691 Z0.197 F300.000
G1 X53.250 Y-5.809 Z-0.192 F300.000
G1 X53.258 Y-5.758 Z-0.195 F300.000
G1 X53.309 Y-5.750 Z-0.198 F300.000
G1 X60.191 Y-5.750 Z-0.588 F300.000
G1 X60.169 Y-5.796 Z-0.584 F300.000
G1 X60.204 Y-5.832 Z-0.594 F300.000
G1 X60.249 Y-5.809 Z-0.604 F300.000
G1 X60.242 Y-5.758 Z-0.600 F300.000
G1 X60.191 Y-5.750 Z-0.599 F300.000
G1 X60.168 Y-5.796 Z-0.602 F300.000
G1 X60.204 Y-5.832 Z-0.606 F300.000
G1 X60.250 Y-5.809 Z-0.605 F300.000
G1 X60.250 Y-12.691 Z-0.751 F300.000
G1 X60.242 Y-12.742 Z-0.752 F300.000
G1 X60.191 Y-12.750 Z-0.753 F300.000
G1 X53.309 Y-12.750 Z-0.899 F300.000
G1 X53.258 Y-12.742 Z-0.900 F300.000
G1 X53.250 Y-12.691 Z-0.901 F300.000
G1 X53.250 Y-5.809 Z-1.047 F300.000
G1 X53.258 Y-5.758 Z-1.048 F300.000
G1 X53.309 Y-5.750 Z-1.049 F300.000
G1 X60.191 Y-5.750 Z-1.195 F300.000
G1 X60.168 Y-5.796 Z-1.194 F300.000
G1 X60.204 Y-5.832 Z-1.198 F300.000
G1 X60.250 Y-5.809 Z-1.201 F300.000
G1 X60.242 Y-5.758 Z-1.200 F300.000
G1 X60.191 Y-5.750 Z-1.199 F300.000
G1 X60.168 Y-5.796 Z-1.202 F300.000
G1 X60.204 Y-5.832 Z-1.206 F300.000
G1 X60.250 Y-5.809 Z-1.205 F300.000
G1 X60.250 Y-12.691 Z-1.351 F300.000
G1 X60.242 Y-12.742 Z-1.352 F300.000
G1 X60.191 Y-12.750 Z-1.353 F300.000
G1 X53.309 Y-12.750 Z-1.499 F300.000
G1 X53.258 Y-12.742 Z-1.500 F300.000
G1 X53.250 Y-12.691 Z-1.501 F300.000
G1 X53.250 Y-5.809 Z-1.647 F300.000
G1 X53.258 Y-5.758 Z-1.648 F300.000
G1 X53.309 Y-5.750 Z-1.649 F300.000
G1 X60.191 Y-5.750 Z-1.795 F300.000
G1 X60.168 Y-5.796 Z-1.794 F300.000
G1 X60.204 Y-5.832 Z-1.798 F300.000
G1 X60.250 Y-5.809 Z-1.801 F300.000
G1 X60.242 Y-5.758 Z-1.800 F300.000
G1 X60.191 Y-5.750 Z-1.800 F300.000
G1 X60.168 Y-5.796 Z-1.801 F300.000
G1 X60.204 Y-5.832 Z-1.802 F300.000
G1 X60.250 Y-5.809 Z-1.802 F300.000
G1 X60.250 Y-12.691 Z-1.850 F300.000
G1 X60.242 Y-12.742 Z-1.851 F300.000
G1 X60.191 Y-12.750 Z-1.851 F300.000
G1 X53.309 Y-12.750 Z-1.900 F300.000
G1 X53.258 Y-12.742 Z-1.900 F300.000
G1 X53.250 Y-12.691 Z-1.900 F300.000
G1 X53.250 Y-5.809 Z-1.949 F300.000
G1 X53.258 Y-5.758 Z-1.949 F300.000
G1 X53.309 Y-5.750 Z-1.950 F300.000
G1 X60.191 Y-5.750 Z-1.998 F300.000
G1 X60.168 Y-5.796 Z-1.998 F300.000
G1 X60.204 Y-5.832 Z-1.999 F300.000
G1 X60.250 Y-5.809 Z-2.000 F300.000
G1 X60.242 Y-5.758 Z-2.000 F300.000
G3 X60.250 Y-5.809 Z-2.000 I-0.031 J-0.031 K0.000 F300.000
G1 X60.250 Y-12.691 Z-2.000 F300.000
G2 X60.191 Y-12.750 Z-2.000 I-0.039 J-0.020 K0.000 F300.000
G1 X53.309 Y-12.750 Z-2.000 F300.000
G2 X53.250 Y-12.691 Z-2.000 I-0.020 J0.039 K0.000 F300.000
G1 X53.250 Y-5.809 Z-2.000 F300.000
G2 X53.309 Y-5.750 Z-2.000 I0.039 J0.020 K0.000 F300.000
G1 X60.191 Y-5.750 Z-2.000 F300.000
G3 X60.242 Y-5.758 Z-2.000 I0.020 J-0.039 K0.000 F300.000
G0 X60.242 Y-5.758 Z5.000
(Finish operation: RampEntryDressup005)
(Begin operation: RampEntryDressup006)
(Path: RampEntryDressup006)
G0 X0.000 Y0.000 Z5.000
G0 X12.742 Y-15.258 Z5.000
G0 X12.742 Y-15.258 Z1.000
G1 X12.691 Y-15.251 Z1.004 F300.000
G1 X12.668 Y-15.296 Z0.994 F300.000
G1 X12.704 Y-15.331 Z0.984 F300.000
G1 X12.750 Y-15.309 Z0.988 F300.000
G1 X12.750 Y-22.191 Z0.598 F300.000
G1 X12.742 Y-22.242 Z0.595 F300.000
G1 X12.691 Y-22.250 Z0.592 F300.000
G1 X5.809 Y-22.250 Z0.203 F300.000
G1 X5.758 Y-22.242 Z0.200 F300.000
G1 X5.750 Y-22.191 Z0.197 F300.000
G1 X5.750 Y-15.309 Z-0.192 F300.000
G1 X5.758 Y-15.258 Z-0.195 F300.000
G1 X5.809 Y-15.250 Z-0.198 F300.000
G1 X12.691 Y-15.250 Z-0.588 F300.000
G1 X12.669 Y-15.296 Z-0.584 F300.000
G1 X12.704 Y-15.332 Z-0.594 F300.000
G1 X12.749 Y-15.309 Z-0.604 F300.000
G1 X12.742 Y-15.258 Z-0.600 F300.000
G1 X12.691 Y-15.250 Z-0.599 F300.000
G1 X12.668 Y-15.296 Z-0.602 F300.000
G1 X12.704 Y-15.332 Z-0.606 F300.000
G1 X12.750 Y-15.309 Z-0.605 F300.000
G1 X12.750 Y-22.191 Z-0.751 F300.000
G1 X12.742 Y-22.242 Z-0.752 F300.000
G1 X12.691 Y-22.250 Z-0.753 F300.000
G1 X5.809 Y-22.250 Z-0.899 F300.000
G1 X5.758 Y-22.242 Z-0.900 F300.000
G1 X5.750 Y-22.191 Z-0.901 F300.000
G1 X5.750 Y-15.309 Z-1.047 F300.000
G1 X5.758 Y-15.258 Z-1.048 F300.000
G1 X5.809 Y-15.250 Z-1.049 F300.000
G1 X12.691 Y-15.250 Z-1.195 F300.000
G1 X12.668 Y-15.296 Z-1.194 F300.000
G1 X12.704 Y-15.332 Z-1.198 F300.000
G1 X12.750 Y-15.309 Z-1.201 F300.000
G1 X12.742 Y-15.258 Z-1.200 F300.000
G1 X12.691 Y-15.250 Z-1.199 F300.000
G1 X12.668 Y-15.296 Z-1.202 F300.000
G1 X12.704 Y-15.332 Z-1.206 F300.000
G1 X12.750 Y-15.309 Z-1.205 F300.000
G1 X12.750 Y-22.191 Z-1.351 F300.000
G1 X12.742 Y-22.242 Z-1.352 F300.000
G1 X12.691 Y-22.250 Z-1.353 F300.000
G1 X5.809 Y-22.250 Z-1.499 F300.000
G1 X5.758 Y-22.242 Z-1.500 F300.000
G1 X5.750 Y-22.191 Z-1.501 F300.000
G1 X5.750 Y-15.309 Z-1.647 F300.000
G1 X5.758 Y-15.258 Z-1.648 F300.000
G1 X5.809 Y-15.250 Z-1.649 F300.000
G1 X12.691 Y-15.250 Z-1.795 F300.000
G1 X12.668 Y-15.296 Z-1.794 F300.000
G1 X12.704 Y-15.332 Z-1.798 F300.000
G1 X12.750 Y-15.309 Z-1.801 F300.000
G1 X12.742 Y-15.258 Z-1.800 F300.000
G1 X12.691 Y-15.250 Z-1.800 F300.000
G1 X12.668 Y-15.296 Z-1.801 F300.000
G1 X12.704 Y-15.332 Z-1.802 F300.000
G1 X12.750 Y-15.309 Z-1.802 F300.000
G1 X12.750 Y-22.191 Z-1.850 F300.000
G1 X12.742 Y-22.242 Z-1.851 F300.000
G1 X12.691 Y-22.250 Z-1.851 F300.000
G1 X5.809 Y-22.250 Z-1.900 F300.000
G1 X5.758 Y-22.242 Z-1.900 F300.000
G1 X5.750 Y-22.191 Z-1.900 F300.000
G1 X5.750 Y-15.309 Z-1.949 F300.000
G1 X5.758 Y-15.258 Z-1.949 F300.000
G1 X5.809 Y-15.250 Z-1.950 F300.000
G1 X12.691 Y-15.250 Z-1.998 F300.000
G1 X12.668 Y-15.296 Z-1.998 F300.000
G1 X12.704 Y-15.332 Z-1.999 F300.000
G1 X12.750 Y-15.309 Z-2.000 F300.000
G1 X12.742 Y-15.258 Z-2.000 F300.000
G3 X12.750 Y-15.309 Z-2.000 I-0.031 J-0.031 K0.000 F300.000
G1 X12.750 Y-22.191 Z-2.000 F300.000
G2 X12.691 Y-22.250 Z-2.000 I-0.039 J-0.020 K0.000 F300.000
G1 X5.809 Y-22.250 Z-2.000 F300.000
G2 X5.750 Y-22.191 Z-2.000 I-0.020 J0.039 K0.000 F300.000
G1 X5.750 Y-15.309 Z-2.000 F300.000
G2 X5.809 Y-15.250 Z-2.000 I0.039 J0.020 K0.000 F300.000
G1 X12.691 Y-15.250 Z-2.000 F300.000
G3 X12.742 Y-15.258 Z-2.000 I0.020 J-0.039 K0.000 F300.000
G0 X12.742 Y-15.258 Z5.000
(Finish operation: RampEntryDressup006)
(Begin operation: RampEntryDressup007)
(Path: RampEntryDressup007)
G0 X0.000 Y0.000 Z5.000
G0 X22.242 Y-15.258 Z5.000
G0 X22.242 Y-15.258 Z1.000
G1 X22.191 Y-15.251 Z1.004 F300.000
G1 X22.168 Y-15.296 Z0.994 F300.000
G1 X22.204 Y-15.331 Z0.984 F300.000
G1 X22.250 Y-15.309 Z0.988 F300.000
G1 X22.250 Y-22.191 Z0.598 F300.000
G1 X22.242 Y-22.242 Z0.595 F300.000
G1 X22.191 Y-22.250 Z0.592 F300.000
G1 X15.309 Y-22.250 Z0.203 F300.000
G1 X15.258 Y-22.242 Z0.200 F300.000
G1 X15.250 Y-22.191 Z0.197 F300.000
G1 X15.250 Y-15.309 Z-0.192 F300.000
G1 X15.258 Y-15.258 Z-0.195 F300.000
G1 X15.309 Y-15.250 Z-0.198 F300.000
G1 X22.191 Y-15.250 Z-0.588 F300.000
G1 X22.169 Y-15.296 Z-0.584 F300.000
G1 X22.204 Y-15.332 Z-0.594 F300.000
G1 X22.249 Y-15.309 Z-0.604 F300.000
G1 X22.242 Y-15.258 Z-0.600 F300.000
G1 X22.191 Y-15.250 Z-0.599 F300.000
G1 X22.168 Y-15.296 Z-0.602 F300.000
G1 X22.204 Y-15.332 Z-0.606 F300.000
G1 X22.250 Y-15.309 Z-0.605 F300.000
G1 X22.250 Y-22.191 Z-0.751 F300.000
G1 X22.242 Y-22.242 Z-0.752 F300.000
G1 X22.191 Y-22.250 Z-0.753 F300.000
G1 X15.309 Y-22.250 Z-0.899 F300.000
G1 X15.258 Y-22.242 Z-0.900 F300.000
G1 X15.250 Y-22.191 Z-0.901 F300.000
G1 X15.250 Y-15.309 Z-1.047 F300.000
G1 X15.258 Y-15.258 Z-1.048 F300.000
G1 X15.309 Y-15.250 Z-1.049 F300.000
G1 X22.191 Y-15.250 Z-1.195 F300.000
G1 X22.168 Y-15.296 Z-1.194 F300.000
G1 X22.204 Y-15.332 Z-1.198 F300.000
G1 X22.250 Y-15.309 Z-1.201 F300.000
G1 X22.242 Y-15.258 Z-1.200 F300.000
G1 X22.191 Y-15.250 Z-1.199 F300.000
G1 X22.168 Y-15.296 Z-1.202 F300.000
G1 X22.204 Y-15.332 Z-1.206 F300.000
G1 X22.250 Y-15.309 Z-1.205 F300.000
G1 X22.250 Y-22.191 Z-1.351 F300.000
G1 X22.242 Y-22.242 Z-1.352 F300.000
G1 X22.191 Y-22.250 Z-1.353 F300.000
G1 X15.309 Y-22.250 Z-1.499 F300.000
G1 X15.258 Y-22.242 Z-1.500 F300.000
G1 X15.250 Y-22.191 Z-1.501 F300.000
G1 X15.250 Y-15.309 Z-1.647 F300.000
G1 X15.258 Y-15.258 Z-1.648 F300.000
G1 X15.309 Y-15.250 Z-1.649 F300.000
G1 X22.191 Y-15.250 Z-1.795 F300.000
G1 X22.168 Y-15.296 Z-1.794 F300.000
G1 X22.204 Y-15.332 Z-1.798 F300.000
G1 X22.250 Y-15.309 Z-1.801 F300.000
G1 X22.242 Y-15.258 Z-1.800 F300.000
G1 X22.191 Y-15.250 Z-1.800 F300.000
G1 X22.168 Y-15.296 Z-1.801 F300.000
G1 X22.204 Y-15.332 Z-1.802 F300.000
G1 X22.250 Y-15.309 Z-1.802 F300.000
G1 X22.250 Y-22.191 Z-1.850 F300.000
G1 X22.242 Y-22.242 Z-1.851 F300.000
G1 X22.191 Y-22.250 Z-1.851 F300.000
G1 X15.309 Y-22.250 Z-1.900 F300.000
G1 X15.258 Y-22.242 Z-1.900 F300.000
G1 X15.250 Y-22.191 Z-1.900 F300.000
G1 X15.250 Y-15.309 Z-1.949 F300.000
G1 X15.258 Y-15.258 Z-1.949 F300.000
G1 X15.309 Y-15.250 Z-1.950 F300.000
G1 X22.191 Y-15.250 Z-1.998 F300.000
G1 X22.168 Y-15.296 Z-1.998 F300.000
G1 X22.204 Y-15.332 Z-1.999 F300.000
G1 X22.250 Y-15.309 Z-2.000 F300.000
G1 X22.242 Y-15.258 Z-2.000 F300.000
G3 X22.250 Y-15.309 Z-2.000 I-0.031 J-0.031 K0.000 F300.000
G1 X22.250 Y-22.191 Z-2.000 F300.000
G2 X22.191 Y-22.250 Z-2.000 I-0.039 J-0.020 K0.000 F300.000
G1 X15.309 Y-22.250 Z-2.000 F300.000
G2 X15.250 Y-22.191 Z-2.000 I-0.020 J0.039 K0.000 F300.000
G1 X15.250 Y-15.309 Z-2.000 F300.000
G2 X15.309 Y-15.250 Z-2.000 I0.039 J0.020 K0.000 F300.000
G1 X22.191 Y-15.250 Z-2.000 F300.000
G3 X22.242 Y-15.258 Z-2.000 I0.020 J-0.039 K0.000 F300.000
G0 X22.242 Y-15.258 Z5.000
(Finish operation: RampEntryDressup007)
(Begin operation: RampEntryDressup008)
(Path: RampEntryDressup008)
G0 X0.000 Y0.000 Z5.000
G0 X31.742 Y-15.258 Z5.000
G0 X31.742 Y-15.258 Z1.000
G1 X31.691 Y-15.251 Z1.004 F300.000
G1 X31.668 Y-15.296 Z0.994 F300.000
G1 X31.704 Y-15.331 Z0.984 F300.000
G1 X31.750 Y-15.309 Z0.988 F300.000
G1 X31.750 Y-22.191 Z0.598 F300.000
G1 X31.742 Y-22.242 Z0.595 F300.000
G1 X31.691 Y-22.250 Z0.592 F300.000
G1 X24.809 Y-22.250 Z0.203 F300.000
G1 X24.758 Y-22.242 Z0.200 F300.000
G1 X24.750 Y-22.191 Z0.197 F300.000
G1 X24.750 Y-15.309 Z-0.192 F300.000
G1 X24.758 Y-15.258 Z-0.195 F300.000
G1 X24.809 Y-15.250 Z-0.198 F300.000
G1 X31.691 Y-15.250 Z-0.588 F300.000
G1 X31.669 Y-15.296 Z-0.584 F300.000
G1 X31.704 Y-15.332 Z-0.594 F300.000
G1 X31.749 Y-15.309 Z-0.604 F300.000
G1 X31.742 Y-15.258 Z-0.600 F300.000
G1 X31.691 Y-15.250 Z-0.599 F300.000
G1 X31.668 Y-15.296 Z-0.602 F300.000
G1 X31.704 Y-15.332 Z-0.606 F300.000
G1 X31.750 Y-15.309 Z-0.605 F300.000
G1 X31.750 Y-22.191 Z-0.751 F300.000
G1 X31.742 Y-22.242 Z-0.752 F300.000
G1 X31.691 Y-22.250 Z-0.753 F300.000
G1 X24.809 Y-22.250 Z-0.899 F300.000
G1 X24.758 Y-22.242 Z-0.900 F300.000
G1 X24.750 Y-22.191 Z-0.901 F300.000
G1 X24.750 Y-15.309 Z-1.047 F300.000
G1 X24.758 Y-15.258 Z-1.048 F300.000
G1 X24.809 Y-15.250 Z-1.049 F300.000
G1 X31.691 Y-15.250 Z-1.195 F300.000
G1 X31.668 Y-15.296 Z-1.194 F300.000
G1 X31.704 Y-15.332 Z-1.198 F300.000
G1 X31.750 Y-15.309 Z-1.201 F300.000
G1 X31.742 Y-15.258 Z-1.200 F300.000
G1 X31.691 Y-15.250 Z-1.199 F300.000
G1 X31.668 Y-15.296 Z-1.202 F300.000
G1 X31.704 Y-15.332 Z-1.206 F300.000
G1 X31.750 Y-15.309 Z-1.205 F300.000
G1 X31.750 Y-22.191 Z-1.351 F300.000
G1 X31.742 Y-22.242 Z-1.352 F300.000
G1 X31.691 Y-22.250 Z-1.353 F300.000
G1 X24.809 Y-22.250 Z-1.499 F300.000
G1 X24.758 Y-22.242 Z-1.500 F300.000
G1 X24.750 Y-22.191 Z-1.501 F300.000
G1 X24.750 Y-15.309 Z-1.647 F300.000
G1 X24.758 Y-15.258 Z-1.648 F300.000
G1 X24.809 Y-15.250 Z-1.649 F300.000
G1 X31.691 Y-15.250 Z-1.795 F300.000
G1 X31.668 Y-15.296 Z-1.794 F300.000
G1 X31.704 Y-15.332 Z-1.798 F300.000
G1 X31.750 Y-15.309 Z-1.801 F300.000
G1 X31.742 Y-15.258 Z-1.800 F300.000
G1 X31.691 Y-15.250 Z-1.800 F300.000
G1 X31.668 Y-15.296 Z-1.801 F300.000
G1 X31.704 Y-15.332 Z-1.802 F300.000
G1 X31.750 Y-15.309 Z-1.802 F300.000
G1 X31.750 Y-22.191 Z-1.850 F300.000
G1 X31.742 Y-22.242 Z-1.851 F300.000
G1 X31.691 Y-22.250 Z-1.851 F300.000
G1 X24.809 Y-22.250 Z-1.900 F300.000
G1 X24.758 Y-22.242 Z-1.900 F300.000
G1 X24.750 Y-22.191 Z-1.900 F300.000
G1 X24.750 Y-15.309 Z-1.949 F300.000
G1 X24.758 Y-15.258 Z-1.949 F300.000
G1 X24.809 Y-15.250 Z-1.950 F300.000
G1 X31.691 Y-15.250 Z-1.998 F300.000
G1 X31.668 Y-15.296 Z-1.998 F300.000
G1 X31.704 Y-15.332 Z-1.999 F300.000
G1 X31.750 Y-15.309 Z-2.000 F300.000
G1 X31.742 Y-15.258 Z-2.000 F300.000
G3 X31.750 Y-15.309 Z-2.000 I-0.031 J-0.031 K0.000 F300.000
G1 X31.750 Y-22.191 Z-2.000 F300.000
G2 X31.691 Y-22.250 Z-2.000 I-0.039 J-0.020 K0.000 F300.000
G1 X24.809 Y-22.250 Z-2.000 F300.000
G2 X24.750 Y-22.191 Z-2.000 I-0.020 J0.039 K0.000 F300.000
G1 X24.750 Y-15.309 Z-2.000 F300.000
G2 X24.809 Y-15.250 Z-2.000 I0.039 J0.020 K0.000 F300.000
G1 X31.691 Y-15.250 Z-2.000 F300.000
G3 X31.742 Y-15.258 Z-2.000 I0.020 J-0.039 K0.000 F300.000
G0 X31.742 Y-15.258 Z5.000
(Finish operation: RampEntryDressup008)
(Begin operation: RampEntryDressup009)
(Path: RampEntryDressup009)
G0 X0.000 Y0.000 Z5.000
G0 X41.242 Y-15.258 Z5.000
G0 X41.242 Y-15.258 Z1.000
G1 X41.191 Y-15.251 Z1.004 F300.000
G1 X41.168 Y-15.296 Z0.994 F300.000
G1 X41.204 Y-15.331 Z0.984 F300.000
G1 X41.250 Y-15.309 Z0.988 F300.000
G1 X41.250 Y-22.191 Z0.598 F300.000
G1 X41.242 Y-22.242 Z0.595 F300.000
G1 X41.191 Y-22.250 Z0.592 F300.000
G1 X34.309 Y-22.250 Z0.203 F300.000
G1 X34.258 Y-22.242 Z0.200 F300.000
G1 X34.250 Y-22.191 Z0.197 F300.000
G1 X34.250 Y-15.309 Z-0.192 F300.000
G1 X34.258 Y-15.258 Z-0.195 F300.000
G1 X34.309 Y-15.250 Z-0.198 F300.000
G1 X41.191 Y-15.250 Z-0.588 F300.000
G1 X41.169 Y-15.296 Z-0.584 F300.000
G1 X41.204 Y-15.332 Z-0.594 F300.000
G1 X41.249 Y-15.309 Z-0.604 F300.000
G1 X41.242 Y-15.258 Z-0.600 F300.000
G1 X41.191 Y-15.250 Z-0.599 F300.000
G1 X41.168 Y-15.296 Z-0.602 F300.000
G1 X41.204 Y-15.332 Z-0.606 F300.000
G1 X41.250 Y-15.309 Z-0.605 F300.000
G1 X41.250 Y-22.191 Z-0.751 F300.000
G1 X41.242 Y-22.242 Z-0.752 F300.000
G1 X41.191 Y-22.250 Z-0.753 F300.000
G1 X34.309 Y-22.250 Z-0.899 F300.000
G1 X34.258 Y-22.242 Z-0.900 F300.000
G1 X34.250 Y-22.191 Z-0.901 F300.000
G1 X34.250 Y-15.309 Z-1.047 F300.000
G1 X34.258 Y-15.258 Z-1.048 F300.000
G1 X34.309 Y-15.250 Z-1.049 F300.000
G1 X41.191 Y-15.250 Z-1.195 F300.000
G1 X41.168 Y-15.296 Z-1.194 F300.000
G1 X41.204 Y-15.332 Z-1.198 F300.000
G1 X41.250 Y-15.309 Z-1.201 F300.000
G1 X41.242 Y-15.258 Z-1.200 F300.000
G1 X41.191 Y-15.250 Z-1.199 F300.000
G1 X41.168 Y-15.296 Z-1.202 F300.000
G1 X41.204 Y-15.332 Z-1.206 F300.000
G1 X41.250 Y-15.309 Z-1.205 F300.000
G1 X41.250 Y-22.191 Z-1.351 F300.000
G1 X41.242 Y-22.242 Z-1.352 F300.000
G1 X41.191 Y-22.250 Z-1.353 F300.000
G1 X34.309 Y-22.250 Z-1.499 F300.000
G1 X34.258 Y-22.242 Z-1.500 F300.000
G1 X34.250 Y-22.191 Z-1.501 F300.000
G1 X34.250 Y-15.309 Z-1.647 F300.000
G1 X34.258 Y-15.258 Z-1.648 F300.000
G1 X34.309 Y-15.250 Z-1.649 F300.000
G1 X41.191 Y-15.250 Z-1.795 F300.000
G1 X41.168 Y-15.296 Z-1.794 F300.000
G1 X41.204 Y-15.332 Z-1.798 F300.000
G1 X41.250 Y-15.309 Z-1.801 F300.000
G1 X41.242 Y-15.258 Z-1.800 F300.000
G1 X41.191 Y-15.250 Z-1.800 F300.000
G1 X41.168 Y-15.296 Z-1.801 F300.000
G1 X41.204 Y-15.332 Z-1.802 F300.000
G1 X41.250 Y-15.309 Z-1.802 F300.000
G1 X41.250 Y-22.191 Z-1.850 F300.000
G1 X41.242 Y-22.242 Z-1.851 F300.000
G1 X41.191 Y-22.250 Z-1.851 F300.000
G1 X34.309 Y-22.250 Z-1.900 F300.000
G1 X34.258 Y-22.242 Z-1.900 F300.000
G1 X34.250 Y-22.191 Z-1.900 F300.000
G1 X34.250 Y-15.309 Z-1.949 F300.000
G1 X34.258 Y-15.258 Z-1.949 F300.000
G1 X34.309 Y-15.250 Z-1.950 F300.000
G1 X41.191 Y-15.250 Z-1.998 F300.000
G1 X41.168 Y-15.296 Z-1.998 F300.000
G1 X41.204 Y-15.332 Z-1.999 F300.000
G1 X41.250 Y-15.309 Z-2.000 F300.000
G1 X41.242 Y-15.258 Z-2.000 F300.000
G3 X41.250 Y-15.309 Z-2.000 I-0.031 J-0.031 K0.000 F300.000
G1 X41.250 Y-22.191 Z-2.000 F300.000
G2 X41.191 Y-22.250 Z-2.000 I-0.039 J-0.020 K0.000 F300.000
G1 X34.309 Y-22.250 Z-2.000 F300.000
G2 X34.250 Y-22.191 Z-2.000 I-0.020 J0.039 K0.000 F300.000
G1 X34.250 Y-15.309 Z-2.000 F300.000
G2 X34.309 Y-15.250 Z-2.000 I0.039 J0.020 K0.000 F300.000
G1 X41.191 Y-15.250 Z-2.000 F300.000
G3 X41.242 Y-15.258 Z-2.000 I0.020 J-0.039 K0.000 F300.000
G0 X41.242 Y-15.258 Z5.000
(Finish operation: RampEntryDressup009)
(Begin operation: RampEntryDressup010)
(Path: RampEntryDressup010)
G0 X0.000 Y0.000 Z5.000
G0 X50.742 Y-15.258 Z5.000
G0 X50.742 Y-15.258 Z1.000
G1 X50.691 Y-15.251 Z1.004 F300.000
G1 X50.668 Y-15.296 Z0.994 F300.000
G1 X50.704 Y-15.331 Z0.984 F300.000
G1 X50.750 Y-15.309 Z0.988 F300.000
G1 X50.750 Y-22.191 Z0.598 F300.000
G1 X50.742 Y-22.242 Z0.595 F300.000
G1 X50.691 Y-22.250 Z0.592 F300.000
G1 X43.809 Y-22.250 Z0.203 F300.000
G1 X43.758 Y-22.242 Z0.200 F300.000
G1 X43.750 Y-22.191 Z0.197 F300.000
G1 X43.750 Y-15.309 Z-0.192 F300.000
G1 X43.758 Y-15.258 Z-0.195 F300.000
G1 X43.809 Y-15.250 Z-0.198 F300.000
G1 X50.691 Y-15.250 Z-0.588 F300.000
G1 X50.669 Y-15.296 Z-0.584 F300.000
G1 X50.704 Y-15.332 Z-0.594 F300.000
G1 X50.749 Y-15.309 Z-0.604 F300.000
G1 X50.742 Y-15.258 Z-0.600 F300.000
G1 X50.691 Y-15.250 Z-0.599 F300.000
G1 X50.668 Y-15.296 Z-0.602 F300.000
G1 X50.704 Y-15.332 Z-0.606 F300.000
G1 X50.750 Y-15.309 Z-0.605 F300.000
G1 X50.750 Y-22.191 Z-0.751 F300.000
G1 X50.742 Y-22.242 Z-0.752 F300.000
G1 X50.691 Y-22.250 Z-0.753 F300.000
G1 X43.809 Y-22.250 Z-0.899 F300.000
G1 X43.758 Y-22.242 Z-0.900 F300.000
G1 X43.750 Y-22.191 Z-0.901 F300.000
G1 X43.750 Y-15.309 Z-1.047 F300.000
G1 X43.758 Y-15.258 Z-1.048 F300.000
G1 X43.809 Y-15.250 Z-1.049 F300.000
G1 X50.691 Y-15.250 Z-1.195 F300.000
G1 X50.668 Y-15.296 Z-1.194 F300.000
G1 X50.704 Y-15.332 Z-1.198 F300.000
G1 X50.750 Y-15.309 Z-1.201 F300.000
G1 X50.742 Y-15.258 Z-1.200 F300.000
G1 X50.691 Y-15.250 Z-1.199 F300.000
G1 X50.668 Y-15.296 Z-1.202 F300.000
G1 X50.704 Y-15.332 Z-1.206 F300.000
G1 X50.750 Y-15.309 Z-1.205 F300.000
G1 X50.750 Y-22.191 Z-1.351 F300.000
G1 X50.742 Y-22.242 Z-1.352 F300.000
G1 X50.691 Y-22.250 Z-1.353 F300.000
G1 X43.809 Y-22.250 Z-1.499 F300.000
G1 X43.758 Y-22.242 Z-1.500 F300.000
G1 X43.750 Y-22.191 Z-1.501 F300.000
G1 X43.750 Y-15.309 Z-1.647 F300.000
G1 X43.758 Y-15.258 Z-1.648 F300.000
G1 X43.809 Y-15.250 Z-1.649 F300.000
G1 X50.691 Y-15.250 Z-1.795 F300.000
G1 X50.668 Y-15.296 Z-1.794 F300.000
G1 X50.704 Y-15.332 Z-1.798 F300.000
G1 X50.750 Y-15.309 Z-1.801 F300.000
G1 X50.742 Y-15.258 Z-1.800 F300.000
G1 X50.691 Y-15.250 Z-1.800 F300.000
G1 X50.668 Y-15.296 Z-1.801 F300.000
G1 X50.704 Y-15.332 Z-1.802 F300.000
G1 X50.750 Y-15.309 Z-1.802 F300.000
G1 X50.750 Y-22.191 Z-1.850 F300.000
G1 X50.742 Y-22.242 Z-1.851 F300.000
G1 X50.691 Y-22.250 Z-1.851 F300.000
G1 X43.809 Y-22.250 Z-1.900 F300.000
G1 X43.758 Y-22.242 Z-1.900 F300.000
G1 X43.750 Y-22.191 Z-1.900 F300.000
G1 X43.750 Y-15.309 Z-1.949 F300.000
G1 X43.758 Y-15.258 Z-1.949 F300.000
G1 X43.809 Y-15.250 Z-1.950 F300.000
G1 X50.691 Y-15.250 Z-1.998 F300.000
G1 X50.668 Y-15.296 Z-1.998 F300.000
G1 X50.704 Y-15.332 Z-1.999 F300.000
G1 X50.750 Y-15.309 Z-2.000 F300.000
G1 X50.742 Y-15.258 Z-2.000 F300.000
G3 X50.750 Y-15.309 Z-2.000 I-0.031 J-0.031 K0.000 F300.000
G1 X50.750 Y-22.191 Z-2.000 F300.000
G2 X50.691 Y-22.250 Z-2.000 I-0.039 J-0.020 K0.000 F300.000
G1 X43.809 Y-22.250 Z-2.000 F300.000
G2 X43.750 Y-22.191 Z-2.000 I-0.020 J0.039 K0.000 F300.000
G1 X43.750 Y-15.309 Z-2.000 F300.000
G2 X43.809 Y-15.250 Z-2.000 I0.039 J0.020 K0.000 F300.000
G1 X50.691 Y-15.250 Z-2.000 F300.000
G3 X50.742 Y-15.258 Z-2.000 I0.020 J-0.039 K0.000 F300.000
G0 X50.742 Y-15.258 Z5.000
(Finish operation: RampEntryDressup010)
(Begin operation: RampEntryDressup011)
(Path: RampEntryDressup011)
G0 X0.000 Y0.000 Z5.000
G0 X60.242 Y-15.258 Z5.000
G0 X60.242 Y-15.258 Z1.000
G1 X60.191 Y-15.251 Z1.004 F300.000
G1 X60.168 Y-15.296 Z0.994 F300.000
G1 X60.204 Y-15.331 Z0.984 F300.000
G1 X60.250 Y-15.309 Z0.988 F300.000
G1 X60.250 Y-22.191 Z0.598 F300.000
G1 X60.242 Y-22.242 Z0.595 F300.000
G1 X60.191 Y-22.250 Z0.592 F300.000
G1 X53.309 Y-22.250 Z0.203 F300.000
G1 X53.258 Y-22.242 Z0.200 F300.000
G1 X53.250 Y-22.191 Z0.197 F300.000
G1 X53.250 Y-15.309 Z-0.192 F300.000
G1 X53.258 Y-15.258 Z-0.195 F300.000
G1 X53.309 Y-15.250 Z-0.198 F300.000
G1 X60.191 Y-15.250 Z-0.588 F300.000
G1 X60.169 Y-15.296 Z-0.584 F300.000
G1 X60.204 Y-15.332 Z-0.594 F300.000
G1 X60.249 Y-15.309 Z-0.604 F300.000
G1 X60.242 Y-15.258 Z-0.600 F300.000
G1 X60.191 Y-15.250 Z-0.599 F300.000
G1 X60.168 Y-15.296 Z-0.602 F300.000
G1 X60.204 Y-15.332 Z-0.606 F300.000
G1 X60.250 Y-15.309 Z-0.605 F300.000
G1 X60.250 Y-22.191 Z-0.751 F300.000
G1 X60.242 Y-22.242 Z-0.752 F300.000
G1 X60.191 Y-22.250 Z-0.753 F300.000
G1 X53.309 Y-22.250 Z-0.899 F300.000
G1 X53.258 Y-22.242 Z-0.900 F300.000
G1 X53.250 Y-22.191 Z-0.901 F300.000
G1 X53.250 Y-15.309 Z-1.047 F300.000
G1 X53.258 Y-15.258 Z-1.048 F300.000
G1 X53.309 Y-15.250 Z-1.049 F300.000
G1 X60.191 Y-15.250 Z-1.195 F300.000
G1 X60.168 Y-15.296 Z-1.194 F300.000
G1 X60.204 Y-15.332 Z-1.198 F300.000
G1 X60.250 Y-15.309 Z-1.201 F300.000
G1 X60.242 Y-15.258 Z-1.200 F300.000
G1 X60.191 Y-15.250 Z-1.199 F300.000
G1 X60.168 Y-15.296 Z-1.202 F300.000
G1 X60.204 Y-15.332 Z-1.206 F300.000
G1 X60.250 Y-15.309 Z-1.205 F300.000
G1 X60.250 Y-22.191 Z-1.351 F300.000
G1 X60.242 Y-22.242 Z-1.352 F300.000
G1 X60.191 Y-22.250 Z-1.353 F300.000
G1 X53.309 Y-22.250 Z-1.499 F300.000
G1 X53.258 Y-22.242 Z-1.500 F300.000
G1 X53.250 Y-22.191 Z-1.501 F300.000
G1 X53.250 Y-15.309 Z-1.647 F300.000
G1 X53.258 Y-15.258 Z-1.648 F300.000
G1 X53.309 Y-15.250 Z-1.649 F300.000
G1 X60.191 Y-15.250 Z-1.795 F300.000
G1 X60.168 Y-15.296 Z-1.794 F300.000
G1 X60.204 Y-15.332 Z-1.798 F300.000
G1 X60.250 Y-15.309 Z-1.801 F300.000
G1 X60.242 Y-15.258 Z-1.800 F300.000
G1 X60.191 Y-15.250 Z-1.800 F300.000
G1 X60.168 Y-15.296 Z-1.801 F300.000
G1 X60.204 Y-15.332 Z-1.802 F300.000
G1 X60.250 Y-15.309 Z-1.802 F300.000
G1 X60.250 Y-22.191 Z-1.850 F300.000
G1 X60.242 Y-22.242 Z-1.851 F300.000
G1 X60.191 Y-22.250 Z-1.851 F300.000
G1 X53.309 Y-22.250 Z-1.900 F300.000
G1 X53.258 Y-22.242 Z-1.900 F300.000
G1 X53.250 Y-22.191 Z-1.900 F300.000
G1 X53.250 Y-15.309 Z-1.949 F300.000
G1 X53.258 Y-15.258 Z-1.949 F300.000
G1 X53.309 Y-15.250 Z-1.950 F300.000
G1 X60.191 Y-15.250 Z-1.998 F300.000
G1 X60.168 Y-15.296 Z-1.998 F300.000
G1 X60.204 Y-15.332 Z-1.999 F300.000
G1 X60.250 Y-15.309 Z-2.000 F300.000
G1 X60.242 Y-15.258 Z-2.000 F300.000
G3 X60.250 Y-15.309 Z-2.000 I-0.031 J-0.031 K0.000 F300.000
G1 X60.250 Y-22.191 Z-2.000 F300.000
G2 X60.191 Y-22.250 Z-2.000 I-0.039 J-0.020 K0.000 F300.000
G1 X53.309 Y-22.250 Z-2.000 F300.000
G2 X53.250 Y-22.191 Z-2.000 I-0.020 J0.039 K0.000 F300.000
G1 X53.250 Y-15.309 Z-2.000 F300.000
G2 X53.309 Y-15.250 Z-2.000 I0.039 J0.020 K0.000 F300.000
G1 X60.191 Y-15.250 Z-2.000 F300.000
G3 X60.242 Y-15.258 Z-2.000 I0.020 J-0.039 K0.000 F300.000
G0 X60.242 Y-15.258 Z5.000
(Finish operation: RampEntryDressup011)
(Begin operation: RampEntryDressup012)
(Path: RampEntryDressup012)
G0 X0.000 Y0.000 Z5.000
G0 X22.242 Y-24.758 Z5.000
G0 X22.242 Y-24.758 Z1.000
G1 X22.191 Y-24.751 Z1.004 F300.000
G1 X22.168 Y-24.796 Z0.994 F300.000
G1 X22.204 Y-24.831 Z0.984 F300.000
G1 X22.250 Y-24.809 Z0.988 F300.000
G1 X22.250 Y-31.691 Z0.598 F300.000
G1 X22.242 Y-31.742 Z0.595 F300.000
G1 X22.191 Y-31.750 Z0.592 F300.000
G1 X15.309 Y-31.750 Z0.203 F300.000
G1 X15.258 Y-31.742 Z0.200 F300.000
G1 X15.250 Y-31.691 Z0.197 F300.000
G1 X15.250 Y-24.809 Z-0.192 F300.000
G1 X15.258 Y-24.758 Z-0.195 F300.000
G1 X15.309 Y-24.750 Z-0.198 F300.000
G1 X22.191 Y-24.750 Z-0.588 F300.000
G1 X22.169 Y-24.796 Z-0.584 F300.000
G1 X22.204 Y-24.832 Z-0.594 F300.000
G1 X22.249 Y-24.809 Z-0.604 F300.000
G1 X22.242 Y-24.758 Z-0.600 F300.000
G1 X22.191 Y-24.750 Z-0.599 F300.000
G1 X22.168 Y-24.796 Z-0.602 F300.000
G1 X22.204 Y-24.832 Z-0.606 F300.000
G1 X22.250 Y-24.809 Z-0.605 F300.000
G1 X22.250 Y-31.691 Z-0.751 F300.000
G1 X22.242 Y-31.742 Z-0.752 F300.000
G1 X22.191 Y-31.750 Z-0.753 F300.000
G1 X15.309 Y-31.750 Z-0.899 F300.000
G1 X15.258 Y-31.742 Z-0.900 F300.000
G1 X15.250 Y-31.691 Z-0.901 F300.000
G1 X15.250 Y-24.809 Z-1.047 F300.000
G1 X15.258 Y-24.758 Z-1.048 F300.000
G1 X15.309 Y-24.750 Z-1.049 F300.000
G1 X22.191 Y-24.750 Z-1.195 F300.000
G1 X22.168 Y-24.796 Z-1.194 F300.000
G1 X22.204 Y-24.832 Z-1.198 F300.000
G1 X22.250 Y-24.809 Z-1.201 F300.000
G1 X22.242 Y-24.758 Z-1.200 F300.000
G1 X22.191 Y-24.750 Z-1.199 F300.000
G1 X22.168 Y-24.796 Z-1.202 F300.000
G1 X22.204 Y-24.832 Z-1.206 F300.000
G1 X22.250 Y-24.809 Z-1.205 F300.000
G1 X22.250 Y-31.691 Z-1.351 F300.000
G1 X22.242 Y-31.742 Z-1.352 F300.000
G1 X22.191 Y-31.750 Z-1.353 F300.000
G1 X15.309 Y-31.750 Z-1.499 F300.000
G1 X15.258 Y-31.742 Z-1.500 F300.000
G1 X15.250 Y-31.691 Z-1.501 F300.000
G1 X15.250 Y-24.809 Z-1.647 F300.000
G1 X15.258 Y-24.758 Z-1.648 F300.000
G1 X15.309 Y-24.750 Z-1.649 F300.000
G1 X22.191 Y-24.750 Z-1.795 F300.000
G1 X22.168 Y-24.796 Z-1.794 F300.000
G1 X22.204 Y-24.832 Z-1.798 F300.000
G1 X22.250 Y-24.809 Z-1.801 F300.000
G1 X22.242 Y-24.758 Z-1.800 F300.000
G1 X22.191 Y-24.750 Z-1.800 F300.000
G1 X22.168 Y-24.796 Z-1.801 F300.000
G1 X22.204 Y-24.832 Z-1.802 F300.000
G1 X22.250 Y-24.809 Z-1.802 F300.000
G1 X22.250 Y-31.691 Z-1.850 F300.000
G1 X22.242 Y-31.742 Z-1.851 F300.000
G1 X22.191 Y-31.750 Z-1.851 F300.000
G1 X15.309 Y-31.750 Z-1.900 F300.000
G1 X15.258 Y-31.742 Z-1.900 F300.000
G1 X15.250 Y-31.691 Z-1.900 F300.000
G1 X15.250 Y-24.809 Z-1.949 F300.000
G1 X15.258 Y-24.758 Z-1.949 F300.000
G1 X15.309 Y-24.750 Z-1.950 F300.000
G1 X22.191 Y-24.750 Z-1.998 F300.000
G1 X22.168 Y-24.796 Z-1.998 F300.000
G1 X22.204 Y-24.832 Z-1.999 F300.000
G1 X22.250 Y-24.809 Z-2.000 F300.000
G1 X22.242 Y-24.758 Z-2.000 F300.000
G3 X22.250 Y-24.809 Z-2.000 I-0.031 J-0.031 K0.000 F300.000
G1 X22.250 Y-31.691 Z-2.000 F300.000
G2 X22.191 Y-31.750 Z-2.000 I-0.039 J-0.020 K0.000 F300.000
G1 X15.309 Y-31.750 Z-2.000 F300.000
G2 X15.250 Y-31.691 Z-2.000 I-0.020 J0.039 K0.000 F300.000
G1 X15.250 Y-24.809 Z-2.000 F300.000
G2 X15.309 Y-24.750 Z-2.000 I0.039 J0.020 K0.000 F300.000
G1 X22.191 Y-24.750 Z-2.000 F300.000
G3 X22.242 Y-24.758 Z-2.000 I0.020 J-0.039 K0.000 F300.000
G0 X22.242 Y-24.758 Z5.000
(Finish operation: RampEntryDressup012)
(Begin operation: RampEntryDressup013)
(Path: RampEntryDressup013)
G0 X0.000 Y0.000 Z5.000
G0 X31.742 Y-24.758 Z5.000
G0 X31.742 Y-24.758 Z1.000
G1 X31.691 Y-24.751 Z1.004 F300.000
G1 X31.668 Y-24.796 Z0.994 F300.000
G1 X31.704 Y-24.831 Z0.984 F300.000
G1 X31.750 Y-24.809 Z0.988 F300.000
G1 X31.750 Y-31.691 Z0.598 F300.000
G1 X31.742 Y-31.742 Z0.595 F300.000
G1 X31.691 Y-31.750 Z0.592 F300.000
G1 X24.809 Y-31.750 Z0.203 F300.000
G1 X24.758 Y-31.742 Z0.200 F300.000
G1 X24.750 Y-31.691 Z0.197 F300.000
G1 X24.750 Y-24.809 Z-0.192 F300.000
G1 X24.758 Y-24.758 Z-0.195 F300.000
G1 X24.809 Y-24.750 Z-0.198 F300.000
G1 X31.691 Y-24.750 Z-0.588 F300.000
G1 X31.669 Y-24.796 Z-0.584 F300.000
G1 X31.704 Y-24.832 Z-0.594 F300.000
G1 X31.749 Y-24.809 Z-0.604 F300.000
G1 X31.742 Y-24.758 Z-0.600 F300.000
G1 X31.691 Y-24.750 Z-0.599 F300.000
G1 X31.668 Y-24.796 Z-0.602 F300.000
G1 X31.704 Y-24.832 Z-0.606 F300.000
G1 X31.750 Y-24.809 Z-0.605 F300.000
G1 X31.750 Y-31.691 Z-0.751 F300.000
G1 X31.742 Y-31.742 Z-0.752 F300.000
G1 X31.691 Y-31.750 Z-0.753 F300.000
G1 X24.809 Y-31.750 Z-0.899 F300.000
G1 X24.758 Y-31.742 Z-0.900 F300.000
G1 X24.750 Y-31.691 Z-0.901 F300.000
G1 X24.750 Y-24.809 Z-1.047 F300.000
G1 X24.758 Y-24.758 Z-1.048 F300.000
G1 X24.809 Y-24.750 Z-1.049 F300.000
G1 X31.691 Y-24.750 Z-1.195 F300.000
G1 X31.668 Y-24.796 Z-1.194 F300.000
G1 X31.704 Y-24.832 Z-1.198 F300.000
G1 X31.750 Y-24.809 Z-1.201 F300.000
G1 X31.742 Y-24.758 Z-1.200 F300.000
G1 X31.691 Y-24.750 Z-1.199 F300.000
G1 X31.668 Y-24.796 Z-1.202 F300.000
G1 X31.704 Y-24.832 Z-1.206 F300.000
G1 X31.750 Y-24.809 Z-1.205 F300.000
G1 X31.750 Y-31.691 Z-1.351 F300.000
G1 X31.742 Y-31.742 Z-1.352 F300.000
G1 X31.691 Y-31.750 Z-1.353 F300.000
G1 X24.809 Y-31.750 Z-1.499 F300.000
G1 X24.758 Y-31.742 Z-1.500 F300.000
G1 X24.750 Y-31.691 Z-1.501 F300.000
G1 X24.750 Y-24.809 Z-1.647 F300.000
G1 X24.758 Y-24.758 Z-1.648 F300.000
G1 X24.809 Y-24.750 Z-1.649 F300.000
G1 X31.691 Y-24.750 Z-1.795 F300.000
G1 X31.668 Y-24.796 Z-1.794 F300.000
G1 X31.704 Y-24.832 Z-1.798 F300.000
G1 X31.750 Y-24.809 Z-1.801 F300.000
G1 X31.742 Y-24.758 Z-1.800 F300.000
G1 X31.691 Y-24.750 Z-1.800 F300.000
G1 X31.668 Y-24.796 Z-1.801 F300.000
G1 X31.704 Y-24.832 Z-1.802 F300.000
G1 X31.750 Y-24.809 Z-1.802 F300.000
G1 X31.750 Y-31.691 Z-1.850 F300.000
G1 X31.742 Y-31.742 Z-1.851 F300.000
G1 X31.691 Y-31.750 Z-1.851 F300.000
G1 X24.809 Y-31.750 Z-1.900 F300.000
G1 X24.758 Y-31.742 Z-1.900 F300.000
G1 X24.750 Y-31.691 Z-1.900 F300.000
G1 X24.750 Y-24.809 Z-1.949 F300.000
G1 X24.758 Y-24.758 Z-1.949 F300.000
G1 X24.809 Y-24.750 Z-1.950 F300.000
G1 X31.691 Y-24.750 Z-1.998 F300.000
G1 X31.668 Y-24.796 Z-1.998 F300.000
G1 X31.704 Y-24.832 Z-1.999 F300.000
G1 X31.750 Y-24.809 Z-2.000 F300.000
G1 X31.742 Y-24.758 Z-2.000 F300.000
G3 X31.750 Y-24.809 Z-2.000 I-0.031 J-0.031 K0.000 F300.000
G1 X31.750 Y-31.691 Z-2.000 F300.000
G2 X31.691 Y-31.750 Z-2.000 I-0.039 J-0.020 K0.000 F300.000
G1 X24.809 Y-31.750 Z-2.000 F300.000
G2 X24.750 Y-31.691 Z-2.000 I-0.020 J0.039 K0.000 F300.000
G1 X24.750 Y-24.809 Z-2.000 F300.000
G2 X24.809 Y-24.750 Z-2.000 I0.039 J0.020 K0.000 F300.000
G1 X31.691 Y-24.750 Z-2.000 F300.000
G3 X31.742 Y-24.758 Z-2.000 I0.020 J-0.039 K0.000 F300.000
G0 X31.742 Y-24.758 Z5.000
(Finish operation: RampEntryDressup013)
(Begin operation: RampEntryDressup014)
(Path: RampEntryDressup014)
G0 X0.000 Y0.000 Z5.000
G0 X41.242 Y-24.758 Z5.000
G0 X41.242 Y-24.758 Z1.000
G1 X41.191 Y-24.751 Z1.004 F300.000
G1 X41.168 Y-24.796 Z0.994 F300.000
G1 X41.204 Y-24.831 Z0.984 F300.000
G1 X41.250 Y-24.809 Z0.988 F300.000
G1 X41.250 Y-31.691 Z0.598 F300.000
G1 X41.242 Y-31.742 Z0.595 F300.000
G1 X41.191 Y-31.750 Z0.592 F300.000
G1 X34.309 Y-31.750 Z0.203 F300.000
G1 X34.258 Y-31.742 Z0.200 F300.000
G1 X34.250 Y-31.691 Z0.197 F300.000
G1 X34.250 Y-24.809 Z-0.192 F300.000
G1 X34.258 Y-24.758 Z-0.195 F300.000
G1 X34.309 Y-24.750 Z-0.198 F300.000
G1 X41.191 Y-24.750 Z-0.588 F300.000
G1 X41.169 Y-24.796 Z-0.584 F300.000
G1 X41.204 Y-24.832 Z-0.594 F300.000
G1 X41.249 Y-24.809 Z-0.604 F300.000
G1 X41.242 Y-24.758 Z-0.600 F300.000
G1 X41.191 Y-24.750 Z-0.599 F300.000
G1 X41.168 Y-24.796 Z-0.602 F300.000
G1 X41.204 Y-24.832 Z-0.606 F300.000
G1 X41.250 Y-24.809 Z-0.605 F300.000
G1 X41.250 Y-31.691 Z-0.751 F300.000
G1 X41.242 Y-31.742 Z-0.752 F300.000
G1 X41.191 Y-31.750 Z-0.753 F300.000
G1 X34.309 Y-31.750 Z-0.899 F300.000
G1 X34.258 Y-31.742 Z-0.900 F300.000
G1 X34.250 Y-31.691 Z-0.901 F300.000
G1 X34.250 Y-24.809 Z-1.047 F300.000
G1 X34.258 Y-24.758 Z-1.048 F300.000
G1 X34.309 Y-24.750 Z-1.049 F300.000
G1 X41.191 Y-24.750 Z-1.195 F300.000
G1 X41.168 Y-24.796 Z-1.194 F300.000
G1 X41.204 Y-24.832 Z-1.198 F300.000
G1 X41.250 Y-24.809 Z-1.201 F300.000
G1 X41.242 Y-24.758 Z-1.200 F300.000
G1 X41.191 Y-24.750 Z-1.199 F300.000
G1 X41.168 Y-24.796 Z-1.202 F300.000
G1 X41.204 Y-24.832 Z-1.206 F300.000
G1 X41.250 Y-24.809 Z-1.205 F300.000
G1 X41.250 Y-31.691 Z-1.351 F300.000
G1 X41.242 Y-31.742 Z-1.352 F300.000
G1 X41.191 Y-31.750 Z-1.353 F300.000
G1 X34.309 Y-31.750 Z-1.499 F300.000
G1 X34.258 Y-31.742 Z-1.500 F300.000
G1 X34.250 Y-31.691 Z-1.501 F300.000
G1 X34.250 Y-24.809 Z-1.647 F300.000
G1 X34.258 Y-24.758 Z-1.648 F300.000
G1 X34.309 Y-24.750 Z-1.649 F300.000
G1 X41.191 Y-24.750 Z-1.795 F300.000
G1 X41.168 Y-24.796 Z-1.794 F300.000
G1 X41.204 Y-24.832 Z-1.798 F300.000
G1 X41.250 Y-24.809 Z-1.801 F300.000
G1 X41.242 Y-24.758 Z-1.800 F300.000
G1 X41.191 Y-24.750 Z-1.800 F300.000
G1 X41.168 Y-24.796 Z-1.801 F300.000
G1 X41.204 Y-24.832 Z-1.802 F300.000
G1 X41.250 Y-24.809 Z-1.802 F300.000
G1 X41.250 Y-31.691 Z-1.850 F300.000
G1 X41.242 Y-31.742 Z-1.851 F300.000
G1 X41.191 Y-31.750 Z-1.851 F300.000
G1 X34.309 Y-31.750 Z-1.900 F300.000
G1 X34.258 Y-31.742 Z-1.900 F300.000
G1 X34.250 Y-31.691 Z-1.900 F300.000
G1 X34.250 Y-24.809 Z-1.949 F300.000
G1 X34.258 Y-24.758 Z-1.949 F300.000
G1 X34.309 Y-24.750 Z-1.950 F300.000
G1 X41.191 Y-24.750 Z-1.998 F300.000
G1 X41.168 Y-24.796 Z-1.998 F300.000
G1 X41.204 Y-24.832 Z-1.999 F300.000
G1 X41.250 Y-24.809 Z-2.000 F300.000
G1 X41.242 Y-24.758 Z-2.000 F300.000
G3 X41.250 Y-24.809 Z-2.000 I-0.031 J-0.031 K0.000 F300.000
G1 X41.250 Y-31.691 Z-2.000 F300.000
G2 X41.191 Y-31.750 Z-2.000 I-0.039 J-0.020 K0.000 F300.000
G1 X34.309 Y-31.750 Z-2.000 F300.000
G2 X34.250 Y-31.691 Z-2.000 I-0.020 J0.039 K0.000 F300.000
G1 X34.250 Y-24.809 Z-2.000 F300.000
G2 X34.309 Y-24.750 Z-2.000 I0.039 J0.020 K0.000 F300.000
G1 X41.191 Y-24.750 Z-2.000 F300.000
G3 X41.242 Y-24.758 Z-2.000 I0.020 J-0.039 K0.000 F300.000
G0 X41.242 Y-24.758 Z5.000
(Finish operation: RampEntryDressup014)
(Begin operation: RampEntryDressup015)
(Path: RampEntryDressup015)
G0 X0.000 Y0.000 Z5.000
G0 X50.742 Y-24.758 Z5.000
G0 X50.742 Y-24.758 Z1.000
G1 X50.691 Y-24.751 Z1.004 F300.000
G1 X50.668 Y-24.796 Z0.994 F300.000
G1 X50.704 Y-24.831 Z0.984 F300.000
G1 X50.750 Y-24.809 Z0.988 F300.000
G1 X50.750 Y-31.691 Z0.598 F300.000
G1 X50.742 Y-31.742 Z0.595 F300.000
G1 X50.691 Y-31.750 Z0.592 F300.000
G1 X43.809 Y-31.750 Z0.203 F300.000
G1 X43.758 Y-31.742 Z0.200 F300.000
G1 X43.750 Y-31.691 Z0.197 F300.000
G1 X43.750 Y-24.809 Z-0.192 F300.000
G1 X43.758 Y-24.758 Z-0.195 F300.000
G1 X43.809 Y-24.750 Z-0.198 F300.000
G1 X50.691 Y-24.750 Z-0.588 F300.000
G1 X50.669 Y-24.796 Z-0.584 F300.000
G1 X50.704 Y-24.832 Z-0.594 F300.000
G1 X50.749 Y-24.809 Z-0.604 F300.000
G1 X50.742 Y-24.758 Z-0.600 F300.000
G1 X50.691 Y-24.750 Z-0.599 F300.000
G1 X50.668 Y-24.796 Z-0.602 F300.000
G1 X50.704 Y-24.832 Z-0.606 F300.000
G1 X50.750 Y-24.809 Z-0.605 F300.000
G1 X50.750 Y-31.691 Z-0.751 F300.000
G1 X50.742 Y-31.742 Z-0.752 F300.000
G1 X50.691 Y-31.750 Z-0.753 F300.000
G1 X43.809 Y-31.750 Z-0.899 F300.000
G1 X43.758 Y-31.742 Z-0.900 F300.000
G1 X43.750 Y-31.691 Z-0.901 F300.000
G1 X43.750 Y-24.809 Z-1.047 F300.000
G1 X43.758 Y-24.758 Z-1.048 F300.000
G1 X43.809 Y-24.750 Z-1.049 F300.000
G1 X50.691 Y-24.750 Z-1.195 F300.000
G1 X50.668 Y-24.796 Z-1.194 F300.000
G1 X50.704 Y-24.832 Z-1.198 F300.000
G1 X50.750 Y-24.809 Z-1.201 F300.000
G1 X50.742 Y-24.758 Z-1.200 F300.000
G1 X50.691 Y-24.750 Z-1.199 F300.000
G1 X50.668 Y-24.796 Z-1.202 F300.000
G1 X50.704 Y-24.832 Z-1.206 F300.000
G1 X50.750 Y-24.809 Z-1.205 F300.000
G1 X50.750 Y-31.691 Z-1.351 F300.000
G1 X50.742 Y-31.742 Z-1.352 F300.000
G1 X50.691 Y-31.750 Z-1.353 F300.000
G1 X43.809 Y-31.750 Z-1.499 F300.000
G1 X43.758 Y-31.742 Z-1.500 F300.000
G1 X43.750 Y-31.691 Z-1.501 F300.000
G1 X43.750 Y-24.809 Z-1.647 F300.000
G1 X43.758 Y-24.758 Z-1.648 F300.000
G1 X43.809 Y-24.750 Z-1.649 F300.000
G1 X50.691 Y-24.750 Z-1.795 F300.000
G1 X50.668 Y-24.796 Z-1.794 F300.000
G1 X50.704 Y-24.832 Z-1.798 F300.000
G1 X50.750 Y-24.809 Z-1.801 F300.000
G1 X50.742 Y-24.758 Z-1.800 F300.000
G1 X50.691 Y-24.750 Z-1.800 F300.000
G1 X50.668 Y-24.796 Z-1.801 F300.000
G1 X50.704 Y-24.832 Z-1.802 F300.000
G1 X50.750 Y-24.809 Z-1.802 F300.000
G1 X50.750 Y-31.691 Z-1.850 F300.000
G1 X50.742 Y-31.742 Z-1.851 F300.000
G1 X50.691 Y-31.750 Z-1.851 F300.000
G1 X43.809 Y-31.750 Z-1.900 F300.000
G1 X43.758 Y-31.742 Z-1.900 F300.000
G1 X43.750 Y-31.691 Z-1.900 F300.000
G1 X43.750 Y-24.809 Z-1.949 F300.000
G1 X43.758 Y-24.758 Z-1.949 F300.000
G1 X43.809 Y-24.750 Z-1.950 F300.000
G1 X50.691 Y-24.750 Z-1.998 F300.000
G1 X50.668 Y-24.796 Z-1.998 F300.000
G1 X50.704 Y-24.832 Z-1.999 F300.000
G1 X50.750 Y-24.809 Z-2.000 F300.000
G1 X50.742 Y-24.758 Z-2.000 F300.000
G3 X50.750 Y-24.809 Z-2.000 I-0.031 J-0.031 K0.000 F300.000
G1 X50.750 Y-31.691 Z-2.000 F300.000
G2 X50.691 Y-31.750 Z-2.000 I-0.039 J-0.020 K0.000 F300.000
G1 X43.809 Y-31.750 Z-2.000 F300.000
G2 X43.750 Y-31.691 Z-2.000 I-0.020 J0.039 K0.000 F300.000
G1 X43.750 Y-24.809 Z-2.000 F300.000
G2 X43.809 Y-24.750 Z-2.000 I0.039 J0.020 K0.000 F300.000
G1 X50.691 Y-24.750 Z-2.000 F300.000
G3 X50.742 Y-24.758 Z-2.000 I0.020 J-0.039 K0.000 F300.000
G0 X50.742 Y-24.758 Z5.000
(Finish operation: RampEntryDressup015)
(Begin operation: RampEntryDressup016)
(Path: RampEntryDressup016)
G0 X0.000 Y0.000 Z5.000
G0 X60.242 Y-24.758 Z5.000
G0 X60.242 Y-24.758 Z1.000
G1 X60.191 Y-24.751 Z1.004 F300.000
G1 X60.168 Y-24.796 Z0.994 F300.000
G1 X60.204 Y-24.831 Z0.984 F300.000
G1 X60.250 Y-24.809 Z0.988 F300.000
G1 X60.250 Y-31.691 Z0.598 F300.000
G1 X60.242 Y-31.742 Z0.595 F300.000
G1 X60.191 Y-31.750 Z0.592 F300.000
G1 X53.309 Y-31.750 Z0.203 F300.000
G1 X53.258 Y-31.742 Z0.200 F300.000
G1 X53.250 Y-31.691 Z0.197 F300.000
G1 X53.250 Y-24.809 Z-0.192 F300.000
G1 X53.258 Y-24.758 Z-0.195 F300.000
G1 X53.309 Y-24.750 Z-0.198 F300.000
G1 X60.191 Y-24.750 Z-0.588 F300.000
G1 X60.169 Y-24.796 Z-0.584 F300.000
G1 X60.204 Y-24.832 Z-0.594 F300.000
G1 X60.249 Y-24.809 Z-0.604 F300.000
G1 X60.242 Y-24.758 Z-0.600 F300.000
G1 X60.191 Y-24.750 Z-0.599 F300.000
G1 X60.168 Y-24.796 Z-0.602 F300.000
G1 X60.204 Y-24.832 Z-0.606 F300.000
G1 X60.250 Y-24.809 Z-0.605 F300.000
G1 X60.250 Y-31.691 Z-0.751 F300.000
G1 X60.242 Y-31.742 Z-0.752 F300.000
G1 X60.191 Y-31.750 Z-0.753 F300.000
G1 X53.309 Y-31.750 Z-0.899 F300.000
G1 X53.258 Y-31.742 Z-0.900 F300.000
G1 X53.250 Y-31.691 Z-0.901 F300.000
G1 X53.250 Y-24.809 Z-1.047 F300.000
G1 X53.258 Y-24.758 Z-1.048 F300.000
G1 X53.309 Y-24.750 Z-1.049 F300.000
G1 X60.191 Y-24.750 Z-1.195 F300.000
G1 X60.168 Y-24.796 Z-1.194 F300.000
G1 X60.204 Y-24.832 Z-1.198 F300.000
G1 X60.250 Y-24.809 Z-1.201 F300.000
G1 X60.242 Y-24.758 Z-1.200 F300.000
G1 X60.191 Y-24.750 Z-1.199 F300.000
G1 X60.168 Y-24.796 Z-1.202 F300.000
G1 X60.204 Y-24.832 Z-1.206 F300.000
G1 X60.250 Y-24.809 Z-1.205 F300.000
G1 X60.250 Y-31.691 Z-1.351 F300.000
G1 X60.242 Y-31.742 Z-1.352 F300.000
G1 X60.191 Y-31.750 Z-1.353 F300.000
G1 X53.309 Y-31.750 Z-1.499 F300.000
G1 X53.258 Y-31.742 Z-1.500 F300.000
G1 X53.250 Y-31.691 Z-1.501 F300.000
G1 X53.250 Y-24.809 Z-1.647 F300.000
G1 X53.258 Y-24.758 Z-1.648 F300.000
G1 X53.309 Y-24.750 Z-1.649 F300.000
G1 X60.191 Y-24.750 Z-1.795 F300.000
G1 X60.168 Y-24.796 Z-1.794 F300.000
G1 X60.204 Y-24.832 Z-1.798 F300.000
G1 X60.250 Y-24.809 Z-1.801 F300.000
G1 X60.242 Y-24.758 Z-1.800 F300.000
G1 X60.191 Y-24.750 Z-1.800 F300.000
G1 X60.168 Y-24.796 Z-1.801 F300.000
G1 X60.204 Y-24.832 Z-1.802 F300.000
G1 X60.250 Y-24.809 Z-1.802 F300.000
G1 X60.250 Y-31.691 Z-1.850 F300.000
G1 X60.242 Y-31.742 Z-1.851 F300.000
G1 X60.191 Y-31.750 Z-1.851 F300.000
G1 X53.309 Y-31.750 Z-1.900 F300.000
G1 X53.258 Y-31.742 Z-1.900 F300.000
G1 X53.250 Y-31.691 Z-1.900 F300.000
G1 X53.250 Y-24.809 Z-1.949 F300.000
G1 X53.258 Y-24.758 Z-1.949 F300.000
G1 X53.309 Y-24.750 Z-1.950 F300.000
G1 X60.191 Y-24.750 Z-1.998 F300.000
G1 X60.168 Y-24.796 Z-1.998 F300.000
G1 X60.204 Y-24.832 Z-1.999 F300.000
G1 X60.250 Y-24.809 Z-2.000 F300.000
G1 X60.242 Y-24.758 Z-2.000 F300.000
G3 X60.250 Y-24.809 Z-2.000 I-0.031 J-0.031 K0.000 F300.000
G1 X60.250 Y-31.691 Z-2.000 F300.000
G2 X60.191 Y-31.750 Z-2.000 I-0.039 J-0.020 K0.000 F300.000
G1 X53.309 Y-31.750 Z-2.000 F300.000
G2 X53.250 Y-31.691 Z-2.000 I-0.020 J0.039 K0.000 F300.000
G1 X53.250 Y-24.809 Z-2.000 F300.000
G2 X53.309 Y-24.750 Z-2.000 I0.039 J0.020 K0.000 F300.000
G1 X60.191 Y-24.750 Z-2.000 F300.000
G3 X60.242 Y-24.758 Z-2.000 I0.020 J-0.039 K0.000 F300.000
G0 X60.242 Y-24.758 Z5.000
(Finish operation: RampEntryDressup016)
(Begin postamble)
M5
G17 G90
M2
