(Exported by FreeCAD)
(Post Processor: grbl_post)
(Output Time:2023-12-18 17:31:54.352455)
(Begin preamble)
G17 G90
G21
(Begin operation: Fixture)
(Path: Fixture)
G54
(Finish operation: Fixture)
(Begin operation: TC: endmill_FC1D318)
(Path: TC: endmill_FC1D318)
(TC: endmill_FC1D318)
(Begin toolchange)
( M6 T1.0 )
M3 S10000.0
(Finish operation: TC: endmill_FC1D318)
(Begin operation: Pocket_Shape001)
(Path: Pocket_Shape001)
(Pocket_Shape001)
G0 Z5.000
G0 X11.912 Y-16.088
G0 Z1.000
G1 X11.912 Y-16.088 Z-2.000 F300.000
G1 X11.912 Y-21.412 Z-2.000 F600.000
G1 X6.588 Y-21.412 Z-2.000 F600.000
G1 X6.588 Y-16.088 Z-2.000 F600.000
G1 X11.912 Y-16.088 Z-2.000 F600.000
G0 Z5.000
G0 Y-21.412 Z5.000
G0 Y-21.412 Z1.000
G1 X11.912 Y-21.412 Z-2.000 F300.000
G1 X11.912 Y-17.820 Z-2.000 F600.000
G1 X8.320 Y-21.412 Z-2.000 F600.000
G1 X6.588 Y-21.412 Z-2.000 F600.000
G1 X6.588 Y-19.553 Z-2.000 F600.000
G1 X6.588 Y-16.088 Z-2.000 F600.000
G1 X10.053 Y-16.088 Z-2.000 F600.000
G1 X6.588 Y-19.553 Z-2.000 F600.000
G0 Z5.000
G0 Z5.000
G0 X6.588 Y-19.553
G0 X16.087
G0 X16.087 Z1.000
G1 X16.087 Y-19.553 Z-2.000 F300.000
G1 X16.087 Y-16.088 Z-2.000 F600.000
G1 X21.412 Y-16.088 Z-2.000 F600.000
G1 X21.412 Y-21.412 Z-2.000 F600.000
G1 X16.087 Y-21.412 Z-2.000 F600.000
G1 X16.087 Y-19.553 Z-2.000 F600.000
G0 Z5.000
G0 Y-19.553 Z5.000
G0 Y-19.553 Z1.000
G1 X16.088 Y-19.553 Z-2.000 F300.000
G1 X19.553 Y-16.088 Z-2.000 F600.000
G1 X16.088 Y-16.088 Z-2.000 F600.000
G1 X16.088 Y-19.553 Z-2.000 F600.000
G1 X16.088 Y-21.412 Z-2.000 F600.000
G1 X17.820 Y-21.412 Z-2.000 F600.000
G1 X21.412 Y-17.820 Z-2.000 F600.000
G1 X21.412 Y-21.412 Z-2.000 F600.000
G0 Z5.000
G0 Z5.000
G0 X21.412 Y-21.412
G0 X21.413 Y-25.587
G0 X21.413 Y-25.587 Z1.000
G1 X21.413 Y-25.587 Z-2.000 F300.000
G1 X21.413 Y-30.913 Z-2.000 F600.000
G1 X16.088 Y-30.913 Z-2.000 F600.000
G1 X16.088 Y-25.587 Z-2.000 F600.000
G1 X21.413 Y-25.587 Z-2.000 F600.000
G0 Z5.000
G0 Y-30.912 Z5.000
G0 Y-30.912 Z1.000
G1 X21.412 Y-30.912 Z-2.000 F300.000
G1 X21.412 Y-27.320 Z-2.000 F600.000
G1 X17.820 Y-30.912 Z-2.000 F600.000
G1 X16.088 Y-30.912 Z-2.000 F600.000
G1 X16.088 Y-29.053 Z-2.000 F600.000
G1 X16.088 Y-25.588 Z-2.000 F600.000
G1 X19.553 Y-25.588 Z-2.000 F600.000
G1 X16.088 Y-29.053 Z-2.000 F600.000
G0 Z5.000
G0 Z5.000
G0 X16.088 Y-29.053
G0 X25.588
G0 X25.588 Z1.000
G1 X25.588 Y-29.053 Z-2.000 F300.000
G1 X25.588 Y-25.587 Z-2.000 F600.000
G1 X30.912 Y-25.587 Z-2.000 F600.000
G1 X30.912 Y-30.913 Z-2.000 F600.000
G1 X25.588 Y-30.913 Z-2.000 F600.000
G1 X25.588 Y-29.053 Z-2.000 F600.000
G1 X25.588 Y-29.053 Z-2.000 F300.000
G1 X29.053 Y-25.588 Z-2.000 F600.000
G1 X25.588 Y-25.588 Z-2.000 F600.000
G1 X25.588 Y-29.053 Z-2.000 F600.000
G1 X25.588 Y-30.912 Z-2.000 F600.000
G1 X27.320 Y-30.912 Z-2.000 F600.000
G1 X30.912 Y-27.320 Z-2.000 F600.000
G1 X30.912 Y-30.912 Z-2.000 F600.000
G0 Z5.000
G0 Z5.000
G0 X30.912 Y-30.912
G0 X30.912 Y-21.412
G0 X30.912 Y-21.412 Z1.000
G1 X30.912 Y-21.412 Z-2.000 F300.000
G1 X25.587 Y-21.412 Z-2.000 F600.000
G1 X25.587 Y-16.088 Z-2.000 F600.000
G1 X30.913 Y-16.088 Z-2.000 F600.000
G1 X30.912 Y-21.412 Z-2.000 F600.000
G1 X30.912 Y-21.412 Z-2.000 F300.000
G1 X30.912 Y-17.820 Z-2.000 F600.000
G1 X27.320 Y-21.412 Z-2.000 F600.000
G1 X25.588 Y-21.412 Z-2.000 F600.000
G1 X25.588 Y-19.553 Z-2.000 F600.000
G1 X25.588 Y-16.088 Z-2.000 F600.000
G1 X29.053 Y-16.088 Z-2.000 F600.000
G1 X25.588 Y-19.553 Z-2.000 F600.000
G0 Z5.000
G0 Z5.000
G0 X25.588 Y-19.553
G0 Y-11.912
G0 Y-11.912 Z1.000
G1 X25.588 Y-11.912 Z-2.000 F300.000
G1 X25.588 Y-6.588 Z-2.000 F600.000
G1 X30.913 Y-6.588 Z-2.000 F600.000
G1 X30.913 Y-11.912 Z-2.000 F600.000
G1 X25.588 Y-11.912 Z-2.000 F600.000
G0 Z5.000
G0 Y-10.053 Z5.000
G0 Y-10.053 Z1.000
G1 X25.588 Y-10.053 Z-2.000 F300.000
G1 X29.053 Y-6.588 Z-2.000 F600.000
G1 X25.588 Y-6.588 Z-2.000 F600.000
G1 X25.588 Y-10.053 Z-2.000 F600.000
G1 X25.588 Y-11.912 Z-2.000 F600.000
G1 X27.320 Y-11.912 Z-2.000 F600.000
G1 X30.912 Y-8.320 Z-2.000 F600.000
G1 X30.912 Y-11.912 Z-2.000 F600.000
G0 Z5.000
G0 Z5.000
G0 X30.912 Y-11.912
G0 X21.413
G0 X21.413 Z1.000
G1 X21.413 Y-11.912 Z-2.000 F300.000
G1 X16.088 Y-11.912 Z-2.000 F600.000
G1 X16.088 Y-6.588 Z-2.000 F600.000
G1 X21.413 Y-6.588 Z-2.000 F600.000
G1 X21.413 Y-11.912 Z-2.000 F600.000
G1 X21.412 Y-11.912 Z-2.000 F300.000
G1 X21.412 Y-8.320 Z-2.000 F600.000
G1 X17.820 Y-11.912 Z-2.000 F600.000
G1 X16.088 Y-11.912 Z-2.000 F600.000
G1 X16.088 Y-10.053 Z-2.000 F600.000
G1 X16.088 Y-6.588 Z-2.000 F600.000
G1 X19.553 Y-6.588 Z-2.000 F600.000
G1 X16.088 Y-10.053 Z-2.000 F600.000
G0 Z5.000
G0 Z5.000
G0 X16.088 Y-10.053
G0 X35.088
G0 X35.088 Z1.000
G1 X35.088 Y-10.053 Z-2.000 F300.000
G1 X35.088 Y-6.588 Z-2.000 F600.000
G1 X40.413 Y-6.588 Z-2.000 F600.000
G1 X40.413 Y-11.912 Z-2.000 F600.000
G1 X35.088 Y-11.912 Z-2.000 F600.000
G1 X35.088 Y-10.053 Z-2.000 F600.000
G1 X35.088 Y-10.053 Z-2.000 F300.000
G1 X38.553 Y-6.588 Z-2.000 F600.000
G1 X35.088 Y-6.588 Z-2.000 F600.000
G1 X35.088 Y-10.053 Z-2.000 F600.000
G1 X35.088 Y-11.912 Z-2.000 F600.000
G1 X36.820 Y-11.912 Z-2.000 F600.000
G1 X40.412 Y-8.320 Z-2.000 F600.000
G1 X40.412 Y-11.912 Z-2.000 F600.000
G0 Z5.000
G0 Z5.000
G0 X40.412 Y-11.912
G0 Y-16.088
G0 Y-16.088 Z1.000
G1 X40.412 Y-16.088 Z-2.000 F300.000
G1 X40.412 Y-21.412 Z-2.000 F600.000
G1 X35.088 Y-21.412 Z-2.000 F600.000
G1 X35.088 Y-16.088 Z-2.000 F600.000
G1 X40.412 Y-16.088 Z-2.000 F600.000
G0 Z5.000
G0 Y-21.412 Z5.000
G0 Y-21.412 Z1.000
G1 X40.412 Y-21.412 Z-2.000 F300.000
G1 X40.412 Y-17.820 Z-2.000 F600.000
G1 X36.820 Y-21.412 Z-2.000 F600.000
G1 X35.088 Y-21.412 Z-2.000 F600.000
G1 X35.088 Y-19.553 Z-2.000 F600.000
G1 X35.088 Y-16.088 Z-2.000 F600.000
G1 X38.553 Y-16.088 Z-2.000 F600.000
G1 X35.088 Y-19.553 Z-2.000 F600.000
G0 Z5.000
G0 Z5.000
G0 X35.088 Y-19.553
G0 Y-25.587
G0 Y-25.587 Z1.000
G1 X35.088 Y-25.587 Z-2.000 F300.000
G1 X40.412 Y-25.587 Z-2.000 F600.000
G1 X40.412 Y-30.913 Z-2.000 F600.000
G1 X35.088 Y-30.913 Z-2.000 F600.000
G1 X35.088 Y-25.587 Z-2.000 F600.000
G0 Z5.000
G0 Y-29.053 Z5.000
G0 Y-29.053 Z1.000
G1 X35.088 Y-29.053 Z-2.000 F300.000
G1 X38.553 Y-25.588 Z-2.000 F600.000
G1 X35.088 Y-25.588 Z-2.000 F600.000
G1 X35.088 Y-29.053 Z-2.000 F600.000
G1 X35.088 Y-30.912 Z-2.000 F600.000
G1 X36.820 Y-30.912 Z-2.000 F600.000
G1 X40.412 Y-27.320 Z-2.000 F600.000
G1 X40.412 Y-30.912 Z-2.000 F600.000
G0 Z5.000
G0 Z5.000
G0 X40.412 Y-30.912
G0 X44.587
G0 X44.587 Z1.000
G1 X44.587 Y-30.913 Z-2.000 F300.000
G1 X44.587 Y-25.587 Z-2.000 F600.000
G1 X49.913 Y-25.587 Z-2.000 F600.000
G1 X49.913 Y-30.913 Z-2.000 F600.000
G1 X44.587 Y-30.913 Z-2.000 F600.000
G0 Z5.000
G0 Y-29.053 Z5.000
G0 Y-29.053 Z1.000
G1 X44.588 Y-29.053 Z-2.000 F300.000
G1 X48.053 Y-25.588 Z-2.000 F600.000
G1 X44.588 Y-25.588 Z-2.000 F600.000
G1 X44.588 Y-29.053 Z-2.000 F600.000
G1 X44.588 Y-30.912 Z-2.000 F600.000
G1 X46.320 Y-30.912 Z-2.000 F600.000
G1 X49.912 Y-27.320 Z-2.000 F600.000
G1 X49.912 Y-30.912 Z-2.000 F600.000
G0 Z5.000
G0 Z5.000
G0 X49.912 Y-30.912
G0 Y-21.412
G0 Y-21.412 Z1.000
G1 X49.912 Y-21.412 Z-2.000 F300.000
G1 X44.587 Y-21.412 Z-2.000 F600.000
G1 X44.587 Y-16.088 Z-2.000 F600.000
G1 X49.913 Y-16.088 Z-2.000 F600.000
G1 X49.912 Y-21.412 Z-2.000 F600.000
G1 X49.912 Y-21.412 Z-2.000 F300.000
G1 X49.912 Y-17.820 Z-2.000 F600.000
G1 X46.320 Y-21.412 Z-2.000 F600.000
G1 X44.588 Y-21.412 Z-2.000 F600.000
G1 X44.588 Y-19.553 Z-2.000 F600.000
G1 X44.588 Y-16.088 Z-2.000 F600.000
G1 X48.053 Y-16.088 Z-2.000 F600.000
G1 X44.588 Y-19.553 Z-2.000 F600.000
G0 Z5.000
G0 Z5.000
G0 X44.588 Y-19.553
G0 Y-11.912
G0 Y-11.912 Z1.000
G1 X44.588 Y-11.912 Z-2.000 F300.000
G1 X44.588 Y-6.588 Z-2.000 F600.000
G1 X49.913 Y-6.588 Z-2.000 F600.000
G1 X49.913 Y-11.912 Z-2.000 F600.000
G1 X44.588 Y-11.912 Z-2.000 F600.000
G0 Z5.000
G0 Y-10.053 Z5.000
G0 Y-10.053 Z1.000
G1 X44.588 Y-10.053 Z-2.000 F300.000
G1 X48.053 Y-6.588 Z-2.000 F600.000
G1 X44.588 Y-6.588 Z-2.000 F600.000
G1 X44.588 Y-10.053 Z-2.000 F600.000
G1 X44.588 Y-11.912 Z-2.000 F600.000
G1 X46.320 Y-11.912 Z-2.000 F600.000
G1 X49.912 Y-8.320 Z-2.000 F600.000
G1 X49.912 Y-11.912 Z-2.000 F600.000
G0 Z5.000
G0 Z5.000
G0 X49.912 Y-11.912
G0 X54.088
G0 X54.088 Z1.000
G1 X54.088 Y-11.912 Z-2.000 F300.000
G1 X54.088 Y-6.588 Z-2.000 F600.000
G1 X59.413 Y-6.588 Z-2.000 F600.000
G1 X59.413 Y-11.912 Z-2.000 F600.000
G1 X54.088 Y-11.912 Z-2.000 F600.000
G0 Z5.000
G0 Y-10.053 Z5.000
G0 Y-10.053 Z1.000
G1 X54.088 Y-10.053 Z-2.000 F300.000
G1 X57.553 Y-6.588 Z-2.000 F600.000
G1 X54.088 Y-6.588 Z-2.000 F600.000
G1 X54.088 Y-10.053 Z-2.000 F600.000
G1 X54.088 Y-11.912 Z-2.000 F600.000
G1 X55.820 Y-11.912 Z-2.000 F600.000
G1 X59.412 Y-8.320 Z-2.000 F600.000
G1 X59.412 Y-11.912 Z-2.000 F600.000
G0 Z5.000
G0 Z5.000
G0 X59.412 Y-11.912
G0 Y-16.088
G0 Y-16.088 Z1.000
G1 X59.412 Y-16.088 Z-2.000 F300.000
G1 X59.412 Y-21.412 Z-2.000 F600.000
G1 X54.088 Y-21.412 Z-2.000 F600.000
G1 X54.088 Y-16.088 Z-2.000 F600.000
G1 X59.412 Y-16.088 Z-2.000 F600.000
G0 Z5.000
G0 Y-21.412 Z5.000
G0 Y-21.412 Z1.000
G1 X59.412 Y-21.412 Z-2.000 F300.000
G1 X59.412 Y-17.820 Z-2.000 F600.000
G1 X55.820 Y-21.412 Z-2.000 F600.000
G1 X54.088 Y-21.412 Z-2.000 F600.000
G1 X54.088 Y-19.553 Z-2.000 F600.000
G1 X54.088 Y-16.088 Z-2.000 F600.000
G1 X57.553 Y-16.088 Z-2.000 F600.000
G1 X54.088 Y-19.553 Z-2.000 F600.000
G0 Z5.000
G0 Z5.000
G0 X54.088 Y-19.553
G0 Y-25.587
G0 Y-25.587 Z1.000
G1 X54.088 Y-25.587 Z-2.000 F300.000
G1 X59.412 Y-25.587 Z-2.000 F600.000
G1 X59.412 Y-30.913 Z-2.000 F600.000
G1 X54.088 Y-30.913 Z-2.000 F600.000
G1 X54.088 Y-25.587 Z-2.000 F600.000
G0 Z5.000
G0 Y-29.053 Z5.000
G0 Y-29.053 Z1.000
G1 X54.088 Y-29.053 Z-2.000 F300.000
G1 X57.553 Y-25.588 Z-2.000 F600.000
G1 X54.088 Y-25.588 Z-2.000 F600.000
G1 X54.088 Y-29.053 Z-2.000 F600.000
G1 X54.088 Y-30.912 Z-2.000 F600.000
G1 X55.820 Y-30.912 Z-2.000 F600.000
G1 X59.412 Y-27.320 Z-2.000 F600.000
G1 X59.412 Y-30.912 Z-2.000 F600.000
G0 Z5.000
G0 Z5.000
(Finish operation: Pocket_Shape001)
(Begin postamble)
M5
G17 G90
M2
